; generated by Slic3r 1.2.9 on 2016-05-17 at 18:08:56

; external perimeters extrusion width = 0.40mm
; perimeters extrusion width = 0.48mm
; infill extrusion width = 0.48mm
; solid infill extrusion width = 0.48mm
; top infill extrusion width = 0.48mm

M107
M190 S60 ; set bed temperature
M104 S220 ; set temperature
G28 ; home all axes
G1 Z5 F5000 ; lift nozzle

M109 S220 ; wait for temperature to be reached
G21 ; set units to millimeters
G90 ; use absolute coordinates
M82 ; use absolute distances for extrusion
G92 E0
G1 Z0.350 F7800.000
G1 E-2.00000 F2400.00000
G92 E0
G1 X57.040 Y57.040 F7800.000
G1 E2.00000 F2400.00000
G1 X57.909 Y56.177 E2.11135 F1800.000
G1 X59.479 Y54.756 E2.30393
G1 X61.305 Y53.254 E2.51893
G1 X63.374 Y51.726 E2.75276
G1 X65.174 Y50.537 E2.94895
G1 X67.406 Y49.216 E3.18481
G1 X69.513 Y48.118 E3.40084
G1 X71.673 Y47.129 E3.61688
G1 X73.635 Y46.344 E3.80899
G1 X76.130 Y45.487 E4.04893
G1 X78.140 Y44.911 E4.23901
G1 X80.441 Y44.367 E4.45402
G1 X82.767 Y43.941 E4.66903
G1 X85.112 Y43.634 E4.88403
G1 X87.469 Y43.446 E5.09904
G1 X89.832 Y43.377 E5.31405
G1 X92.123 Y43.427 E5.52239
G1 X94.888 Y43.634 E5.77456 F1800.000
G1 X96.929 Y43.894 E5.96161
G1 X99.268 Y44.307 E6.17762
G1 X101.584 Y44.838 E6.39365
G1 X103.740 Y45.449 E6.59742
G1 X106.365 Y46.344 E6.84960
G1 X108.327 Y47.129 E7.04172
G1 X110.487 Y48.118 E7.25775
G1 X112.594 Y49.216 E7.47379
G1 X114.479 Y50.321 E7.67246
G1 X116.795 Y51.846 E7.92464
G1 X118.541 Y53.132 E8.12185
G1 X120.521 Y54.756 E8.35466
G1 X122.145 Y56.228 E8.55394
G1 X123.772 Y57.856 E8.76326
G1 X125.366 Y59.618 E8.97931
G1 X126.746 Y61.305 E9.17753
G1 X128.387 Y63.541 E9.42970
G1 X129.580 Y65.358 E9.62737
G1 X130.792 Y67.421 E9.84490
G1 X131.906 Y69.563 E10.06444
G1 X132.776 Y71.455 E10.25381
G1 X133.664 Y73.654 E10.46944
G1 X134.413 Y75.819 E10.67778
G1 X135.183 Y78.502 E10.93155
G1 X135.674 Y80.634 E11.13053
G1 X136.087 Y82.942 E11.34366
G1 X136.392 Y85.349 E11.56436
G1 X136.554 Y87.460 E11.75682
G1 X136.623 Y90.168 E12.00314
G1 X136.570 Y92.231 E12.19084
G1 X136.392 Y94.651 E12.41142
G1 X136.087 Y97.058 E12.63211
G1 X135.709 Y99.184 E12.82840
G1 X135.077 Y101.902 E13.08217
G1 X134.453 Y104.060 E13.28643
G1 X133.780 Y106.031 E13.47582
G1 X132.907 Y108.240 E13.69174
G1 X131.960 Y110.322 E13.89979
G1 X130.671 Y112.793 E14.15320
G1 X129.580 Y114.642 E14.34839
G1 X128.274 Y116.627 E14.56445
G1 X126.868 Y118.541 E14.78042
G1 X125.510 Y120.211 E14.97607
G1 X123.651 Y122.269 E15.22825
G1 X122.092 Y123.823 E15.42846
G1 X120.382 Y125.366 E15.63788
G1 X118.541 Y126.868 E15.85393
G1 X116.795 Y128.154 E16.05112
G1 X114.479 Y129.679 E16.30330
G1 X112.593 Y130.784 E16.50201
G1 X110.487 Y131.882 E16.71797
G1 X108.327 Y132.871 E16.93405
G1 X106.365 Y133.656 E17.12617
G1 X103.740 Y134.551 E17.37834
G1 X101.584 Y135.162 E17.58215
G1 X99.269 Y135.693 E17.79810
G1 X96.928 Y136.106 E18.01423
G1 X94.888 Y136.366 E18.20120
G1 X92.123 Y136.573 E18.45337
G1 X89.832 Y136.623 E18.66171
G1 X87.469 Y136.554 E18.87672
G1 X85.429 Y136.399 E19.06275
G1 X83.072 Y136.106 E19.27870
G1 X80.731 Y135.693 E19.49482
G1 X78.536 Y135.191 E19.69958
G1 X75.869 Y134.430 E19.95175
G1 X73.881 Y133.749 E20.14284
G1 X71.673 Y132.871 E20.35888
G1 X69.513 Y131.882 E20.57497
G1 X67.564 Y130.869 E20.77462
G1 X65.174 Y129.463 E21.02680
G1 X63.373 Y128.274 E21.22303
G1 X61.459 Y126.868 E21.43900
G1 X59.618 Y125.366 E21.65504
G1 X58.028 Y123.933 E21.84967
G1 X56.067 Y121.972 E22.10184
G1 X54.634 Y120.382 E22.29644
G1 X53.132 Y118.541 E22.51249
G1 X51.726 Y116.626 E22.72852
G1 X50.537 Y114.826 E22.92471
G1 X49.128 Y112.429 E23.17751
G1 X48.094 Y110.437 E23.38161
G1 X47.224 Y108.545 E23.57097
G1 X46.220 Y106.031 E23.81711
G1 X45.464 Y103.794 E24.03185
G1 X44.823 Y101.521 E24.24659
G1 X44.362 Y99.536 E24.43190
G1 X43.938 Y97.215 E24.64640
G1 X43.632 Y94.876 E24.86091
G1 X43.445 Y92.524 E25.07540
G1 X43.379 Y89.763 E25.32656
G1 X43.445 Y87.476 E25.53466
G1 X43.632 Y85.124 E25.74916
G1 X43.938 Y82.785 E25.96366
G1 X44.362 Y80.465 E26.17815
G1 X44.903 Y78.168 E26.39266
G1 X45.464 Y76.206 E26.57822
G1 X46.336 Y73.654 E26.82347
G1 X47.224 Y71.455 E27.03910
G1 X48.094 Y69.563 E27.22846
G1 X49.208 Y67.420 E27.44803
G1 X50.321 Y65.521 E27.64819
G1 X51.846 Y63.205 E27.90037
G1 X53.132 Y61.459 E28.09758
G1 X54.586 Y59.673 E28.30695
G1 X56.177 Y57.909 E28.52297
G1 X56.998 Y57.082 E28.62887
G1 E26.62887 F2400.00000
G92 E0
G1 X65.968 Y91.147 F7800.000
G1 E2.00000 F2400.00000
G1 X65.542 Y92.222 E2.10513 F1800.000
G1 X64.862 Y93.157 E2.21026
G1 X63.971 Y93.894 E2.31540
G1 X62.925 Y94.387 E2.42053
G1 X61.783 Y94.605 E2.52628
G1 X60.604 Y94.521 E2.63373
G1 X59.536 Y94.173 E2.73585
G1 X58.554 Y93.550 E2.84160
G1 X57.752 Y92.682 E2.94906
G1 X57.211 Y91.698 E3.05117
G1 X56.922 Y90.571 E3.15693
G1 X56.932 Y89.390 E3.26438
G1 X57.211 Y88.302 E3.36650
G1 X57.768 Y87.289 E3.47163
G1 X58.560 Y86.446 E3.57676
G1 X59.542 Y85.823 E3.68251
G1 X60.669 Y85.467 E3.78997
G1 X61.790 Y85.397 E3.89208 F1800.000
G1 X62.925 Y85.613 E3.99722
G1 X63.971 Y86.106 E4.10235
G1 X64.862 Y86.843 E4.20748
G1 X65.542 Y87.778 E4.31261
G1 X65.968 Y88.853 E4.41774
G1 X66.112 Y90.000 E4.52287
G1 X65.975 Y91.088 E4.62255
G1 X65.357 Y90.990 F7800.000
G1 X64.990 Y91.919 E4.71332 F1800.000
G1 X64.403 Y92.726 E4.80410
G1 X63.634 Y93.363 E4.89488
G1 X62.731 Y93.788 E4.98565
G1 X61.746 Y93.976 E5.07680
G1 X60.725 Y93.903 E5.16990
G1 X59.804 Y93.604 E5.25790
G1 X58.958 Y93.066 E5.34906
G1 X58.263 Y92.314 E5.44215
G1 X57.797 Y91.466 E5.53016
G1 X57.548 Y90.495 E5.62131
G1 X57.556 Y89.471 E5.71441
G1 X57.797 Y88.534 E5.80241
G1 X58.278 Y87.659 E5.89319
G1 X58.961 Y86.931 E5.98396
G1 X59.808 Y86.394 E6.07512
G1 X60.784 Y86.086 E6.16821
G1 X61.750 Y86.025 E6.25622 F1800.000
G1 X62.731 Y86.212 E6.34699
G1 X63.634 Y86.637 E6.43777
G1 X64.403 Y87.274 E6.52854
G1 X64.990 Y88.081 E6.61932
G1 X65.357 Y89.010 E6.71009
G1 X65.483 Y90.000 E6.80087
G1 X65.365 Y90.931 E6.88619
G1 X64.747 Y90.834 F7800.000
G1 X64.438 Y91.615 E6.96261 F1800.000
G1 X63.944 Y92.295 E7.03903
G1 X63.296 Y92.831 E7.11545
G1 X62.536 Y93.189 E7.19186
G1 X61.709 Y93.346 E7.26842
G1 X60.845 Y93.285 E7.34716
G1 X60.072 Y93.034 E7.42105
G1 X59.362 Y92.583 E7.49760
G1 X58.774 Y91.946 E7.57634
G1 X58.383 Y91.234 E7.65023
G1 X58.173 Y90.419 E7.72679
G1 X58.181 Y89.553 E7.80553
G1 X58.383 Y88.766 E7.87942
G1 X58.788 Y88.029 E7.95584
G1 X59.363 Y87.417 E8.03226
G1 X60.074 Y86.966 E8.10881
G1 X60.900 Y86.705 E8.18755
G1 X61.711 Y86.654 E8.26144 F1800.000
G1 X62.536 Y86.811 E8.33786
G1 X63.296 Y87.169 E8.41428
G1 X63.944 Y87.705 E8.49070
G1 X64.438 Y88.385 E8.56712
G1 X64.747 Y89.166 E8.64354
G1 X64.853 Y90.000 E8.71996
G1 X64.755 Y90.774 E8.79092
G1 X65.021 Y91.125 F7800.000
G1 X113.924 Y90.578 F7800.000
G1 X113.924 Y89.422 E8.89605 F1800.000
G1 X114.211 Y88.302 E9.00118
G1 X114.768 Y87.289 E9.10631
G1 X115.560 Y86.446 E9.21145
G1 X116.542 Y85.823 E9.31720
G1 X117.669 Y85.467 E9.42465
G1 X118.790 Y85.397 E9.52677 F1800.000
G1 X119.925 Y85.613 E9.63190
G1 X120.971 Y86.106 E9.73703
G1 X121.862 Y86.843 E9.84216
G1 X122.542 Y87.778 E9.94729
G1 X122.968 Y88.853 E10.05243
G1 X123.112 Y90.000 E10.15756
G1 X122.968 Y91.147 E10.26269
G1 X122.542 Y92.222 E10.36782
G1 X121.862 Y93.157 E10.47295
G1 X120.971 Y93.894 E10.57808
G1 X119.925 Y94.387 E10.68322
G1 X118.790 Y94.603 E10.78835
G1 X117.636 Y94.531 E10.89348
G1 X116.536 Y94.173 E10.99861
G1 X115.554 Y93.550 E11.10436
G1 X114.752 Y92.682 E11.21182
G1 X114.211 Y91.698 E11.31393
G1 X113.939 Y90.636 E11.41361
G1 X114.549 Y90.499 F7800.000
G1 X114.549 Y89.501 E11.50438 F1800.000
G1 X114.797 Y88.534 E11.59516
G1 X115.278 Y87.659 E11.68594
G1 X115.961 Y86.931 E11.77671
G1 X116.808 Y86.394 E11.86786
G1 X117.784 Y86.086 E11.96096
G1 X118.750 Y86.025 E12.04896 F1800.000
G1 X119.731 Y86.212 E12.13974
G1 X120.634 Y86.637 E12.23051
G1 X121.403 Y87.274 E12.32129
G1 X121.990 Y88.081 E12.41207
G1 X122.357 Y89.010 E12.50284
G1 X122.483 Y90.000 E12.59362
G1 X122.357 Y90.990 E12.68439
G1 X121.990 Y91.919 E12.77517
G1 X121.403 Y92.726 E12.86594
G1 X120.634 Y93.363 E12.95672
G1 X119.731 Y93.788 E13.04749
G1 X118.750 Y93.975 E13.13827
G1 X117.754 Y93.912 E13.22904
G1 X116.804 Y93.604 E13.31982
G1 X115.958 Y93.066 E13.41097
G1 X115.263 Y92.314 E13.50407
G1 X114.797 Y91.466 E13.59207
G1 X114.564 Y90.557 E13.67739
G1 X115.174 Y90.420 F7800.000
G1 X115.174 Y89.580 E13.75381 F1800.000
G1 X115.383 Y88.766 E13.83023
G1 X115.788 Y88.029 E13.90665
G1 X116.363 Y87.417 E13.98307
G1 X117.074 Y86.966 E14.05962
G1 X117.900 Y86.705 E14.13836
G1 X118.711 Y86.654 E14.21225 F1800.000
G1 X119.536 Y86.811 E14.28867
G1 X120.296 Y87.169 E14.36509
G1 X120.944 Y87.705 E14.44151
G1 X121.438 Y88.385 E14.51793
G1 X121.747 Y89.166 E14.59435
G1 X121.853 Y90.000 E14.67077
G1 X121.747 Y90.834 E14.74719
G1 X121.438 Y91.615 E14.82360
G1 X120.944 Y92.295 E14.90002
G1 X120.296 Y92.831 E14.97644
G1 X119.536 Y93.189 E15.05286
G1 X118.711 Y93.346 E15.12928
G1 X117.872 Y93.293 E15.20570
G1 X117.072 Y93.034 E15.28212
G1 X116.362 Y92.583 E15.35867
G1 X115.774 Y91.946 E15.43741
G1 X115.383 Y91.234 E15.51130
G1 X115.189 Y90.478 E15.58227
G1 X114.812 Y90.250 F7800.000
G1 E13.58227 F2400.00000
G92 E0
G1 X128.380 Y90.757 F7800.000
G1 E2.00000 F2400.00000
G1 X128.350 Y91.956 E2.10902 F1800.000
G1 X128.200 Y93.906 E2.28689
G1 X127.952 Y95.847 E2.46485
G1 X127.621 Y97.694 E2.63543
G1 X127.180 Y99.601 E2.81340
G1 X126.643 Y101.482 E2.99127
G1 X126.011 Y103.333 E3.16915
G1 X125.286 Y105.148 E3.34685
G1 X124.469 Y106.923 E3.52456
G1 X123.563 Y108.655 E3.70227
G1 X122.574 Y110.333 E3.87938
G1 X121.501 Y111.959 E4.05649
G1 X120.347 Y113.528 E4.23361
G1 X119.115 Y115.036 E4.41072
G1 X117.808 Y116.481 E4.58790
G1 X116.481 Y117.808 E4.75848
G1 X115.036 Y119.115 E4.93566
G1 X113.528 Y120.347 E5.11277
G1 X111.959 Y121.501 E5.28989
G1 X110.333 Y122.574 E5.46700
G1 X108.655 Y123.564 E5.64411
G1 X106.929 Y124.466 E5.82122
G1 X105.161 Y125.280 E5.99823
G1 X103.284 Y126.028 E6.18198
G1 X101.509 Y126.634 E6.35253
G1 X99.636 Y127.171 E6.52967
G1 X97.739 Y127.612 E6.70678
G1 X95.822 Y127.956 E6.88389
G1 X93.889 Y128.202 E7.06101
G1 X91.947 Y128.350 E7.23812
G1 X90.000 Y128.400 E7.41523
G1 X88.053 Y128.350 E7.59235
G1 X86.111 Y128.202 E7.76946
G1 X84.178 Y127.956 E7.94657
G1 X82.261 Y127.612 E8.12369
G1 X80.364 Y127.171 E8.30080
G1 X78.492 Y126.635 E8.47791
G1 X76.649 Y126.004 E8.65503
G1 X74.840 Y125.280 E8.83214
G1 X73.071 Y124.466 E9.00925
G1 X71.345 Y123.564 E9.18636
G1 X69.667 Y122.574 E9.36347
G1 X68.041 Y121.501 E9.54059
G1 X66.472 Y120.347 E9.71770
G1 X64.964 Y119.115 E9.89481
G1 X63.519 Y117.808 E10.07199
G1 X62.192 Y116.481 E10.24258
G1 X60.885 Y115.036 E10.41976
G1 X59.653 Y113.528 E10.59687
G1 X58.499 Y111.959 E10.77389
G1 X57.388 Y110.272 E10.95762
G1 X56.437 Y108.656 E11.12815
G1 X55.531 Y106.923 E11.30591
G1 X54.714 Y105.148 E11.48362
G1 X53.989 Y103.333 E11.66134
G1 X53.360 Y101.492 E11.83818
G1 X52.825 Y99.622 E12.01504
G1 X52.386 Y97.728 E12.19190
G1 X52.043 Y95.813 E12.36876
G1 X51.797 Y93.884 E12.54562
G1 X51.650 Y91.944 E12.72247
G1 X51.600 Y90.000 E12.89933
G1 X51.650 Y88.056 E13.07619
G1 X51.797 Y86.116 E13.25305
G1 X52.043 Y84.187 E13.42991
G1 X52.386 Y82.272 E13.60676
G1 X52.825 Y80.378 E13.78362
G1 X53.360 Y78.508 E13.96048
G1 X53.989 Y76.667 E14.13733
G1 X54.714 Y74.852 E14.31506
G1 X55.497 Y73.148 E14.48561
G1 X56.437 Y71.344 E14.67058
G1 X57.426 Y69.667 E14.84757
G1 X58.499 Y68.041 E15.02468
G1 X59.653 Y66.472 E15.20179
G1 X60.885 Y64.964 E15.37890
G1 X62.192 Y63.520 E15.55601
G1 X63.571 Y62.143 E15.73320
G1 X64.963 Y60.885 E15.90378
G1 X66.472 Y59.653 E16.08096
G1 X68.041 Y58.499 E16.25807
G1 X69.667 Y57.426 E16.43518
G1 X71.345 Y56.436 E16.61230
G1 X73.071 Y55.534 E16.78941
G1 X74.840 Y54.720 E16.96652
G1 X76.649 Y53.996 E17.14363
G1 X78.492 Y53.365 E17.32075
G1 X80.364 Y52.829 E17.49786
G1 X82.261 Y52.388 E17.67497
G1 X84.178 Y52.044 E17.85209
G1 X86.111 Y51.798 E18.02920
G1 X88.053 Y51.650 E18.20631
G1 X90.000 Y51.600 E18.38343
G1 X91.875 Y51.648 E18.55400
G1 X93.891 Y51.798 E18.73777 F1800.000
G1 X95.822 Y52.044 E18.91476
G1 X97.739 Y52.388 E19.09187
G1 X99.636 Y52.829 E19.26898
G1 X101.508 Y53.365 E19.44610
G1 X103.351 Y53.996 E19.62321
G1 X105.160 Y54.720 E19.80032
G1 X106.929 Y55.534 E19.97743
G1 X108.655 Y56.436 E20.15455
G1 X110.333 Y57.426 E20.33166
G1 X111.959 Y58.499 E20.50877
G1 X113.528 Y59.653 E20.68588
G1 X115.036 Y60.885 E20.86299
G1 X116.480 Y62.192 E21.04010
G1 X117.857 Y63.571 E21.21729
G1 X119.115 Y64.963 E21.38787
G1 X120.347 Y66.472 E21.56505
G1 X121.501 Y68.041 E21.74216
G1 X122.574 Y69.667 E21.91927
G1 X123.563 Y71.345 E22.09638
G1 X124.469 Y73.077 E22.27410
G1 X125.286 Y74.852 E22.45180
G1 X126.011 Y76.667 E22.62951
G1 X126.643 Y78.518 E22.80738
G1 X127.180 Y80.399 E22.98526
G1 X127.621 Y82.306 E23.16322
G1 X127.952 Y84.153 E23.33381
G1 X128.200 Y86.094 E23.51176
G1 X128.350 Y88.044 E23.68964
G1 X128.400 Y90.000 E23.86751
G1 X128.382 Y90.697 E23.93091
G1 X129.005 Y90.773 F7800.000
G1 X128.974 Y91.987 E24.04138 F1800.000
G1 X128.822 Y93.970 E24.22215
G1 X128.569 Y95.942 E24.40297
G1 X128.233 Y97.819 E24.57639
G1 X127.785 Y99.757 E24.75721
G1 X127.239 Y101.669 E24.93799
G1 X126.597 Y103.550 E25.11876
G1 X125.860 Y105.394 E25.29936
G1 X125.030 Y107.199 E25.47996
G1 X124.110 Y108.959 E25.66056
G1 X123.105 Y110.664 E25.84056
G1 X122.014 Y112.316 E26.02055
G1 X120.841 Y113.911 E26.20055
G1 X119.589 Y115.444 E26.38054
G1 X118.260 Y116.912 E26.56058
G1 X116.912 Y118.260 E26.73400
G1 X115.444 Y119.589 E26.91403
G1 X113.911 Y120.841 E27.09403
G1 X112.316 Y122.014 E27.27402
G1 X110.664 Y123.105 E27.45402
G1 X108.959 Y124.110 E27.63401
G1 X107.205 Y125.027 E27.81401
G1 X105.407 Y125.855 E27.99394
G1 X103.500 Y126.614 E28.18058
G1 X101.696 Y127.231 E28.35397
G1 X99.793 Y127.776 E28.53399
G1 X97.865 Y128.224 E28.71398
G1 X95.916 Y128.574 E28.89398
G1 X93.953 Y128.824 E29.07398
G1 X91.979 Y128.975 E29.25397
G1 X90.000 Y129.025 E29.43397
G1 X88.021 Y128.975 E29.61396
G1 X86.047 Y128.824 E29.79396
G1 X84.084 Y128.574 E29.97396
G1 X82.135 Y128.224 E30.15395
G1 X80.207 Y127.776 E30.33395
G1 X78.304 Y127.231 E30.51395
G1 X76.431 Y126.590 E30.69394
G1 X74.593 Y125.855 E30.87394
G1 X72.795 Y125.027 E31.05393
G1 X71.041 Y124.110 E31.23393
G1 X69.336 Y123.105 E31.41392
G1 X67.684 Y122.014 E31.59392
G1 X66.089 Y120.841 E31.77392
G1 X64.556 Y119.589 E31.95391
G1 X63.088 Y118.260 E32.13395
G1 X61.740 Y116.912 E32.30736
G1 X60.411 Y115.444 E32.48740
G1 X59.159 Y113.911 E32.66739
G1 X57.986 Y112.317 E32.84734
G1 X56.858 Y110.602 E33.03396
G1 X55.890 Y108.959 E33.20735
G1 X54.970 Y107.199 E33.38798
G1 X54.140 Y105.394 E33.56858
G1 X53.403 Y103.550 E33.74919
G1 X52.764 Y101.679 E33.92892
G1 X52.220 Y99.779 E34.10865
G1 X51.774 Y97.853 E34.28839
G1 X51.425 Y95.908 E34.46813
G1 X51.175 Y93.947 E34.64787
G1 X51.025 Y91.976 E34.82760
G1 X50.975 Y90.000 E35.00734
G1 X51.025 Y88.024 E35.18708
G1 X51.175 Y86.053 E35.36681
G1 X51.425 Y84.092 E35.54655
G1 X51.774 Y82.147 E35.72629
G1 X52.220 Y80.221 E35.90602
G1 X52.764 Y78.321 E36.08576
G1 X53.403 Y76.450 E36.26549
G1 X54.140 Y74.606 E36.44611
G1 X54.936 Y72.873 E36.61950
G1 X55.891 Y71.040 E36.80737
G1 X56.895 Y69.336 E36.98729
G1 X57.986 Y67.684 E37.16729
G1 X59.159 Y66.089 E37.34728
G1 X60.411 Y64.556 E37.52728
G1 X61.739 Y63.088 E37.70727
G1 X63.141 Y61.690 E37.88731
G1 X64.556 Y60.411 E38.06072
G1 X66.089 Y59.159 E38.24076
G1 X67.684 Y57.986 E38.42075
G1 X69.336 Y56.895 E38.60075
G1 X71.041 Y55.890 E38.78074
G1 X72.795 Y54.973 E38.96074
G1 X74.593 Y54.145 E39.14074
G1 X76.431 Y53.410 E39.32073
G1 X78.304 Y52.769 E39.50073
G1 X80.207 Y52.224 E39.68072
G1 X82.135 Y51.776 E39.86072
G1 X84.084 Y51.426 E40.04072
G1 X86.047 Y51.176 E40.22071
G1 X88.021 Y51.025 E40.40071
G1 X90.000 Y50.975 E40.58071
G1 X91.906 Y51.023 E40.75412
G1 X93.954 Y51.176 E40.94077 F1800.000
G1 X95.916 Y51.426 E41.12069
G1 X97.865 Y51.776 E41.30068
G1 X99.793 Y52.224 E41.48068
G1 X101.696 Y52.769 E41.66068
G1 X103.569 Y53.410 E41.84067
G1 X105.407 Y54.145 E42.02067
G1 X107.205 Y54.973 E42.20066
G1 X108.959 Y55.890 E42.38066
