; generated by Slic3r 1.2.9 on 2016-05-26 at 16:47:25

; external perimeters extrusion width = 0.40mm
; perimeters extrusion width = 0.48mm
; infill extrusion width = 0.48mm
; solid infill extrusion width = 0.48mm
; top infill extrusion width = 0.48mm

M107
M190 S60 ; set bed temperature
M104 S220 ; set temperature
G28 ; home all axes
G1 Z5 F5000 ; lift nozzle

M109 S220 ; wait for temperature to be reached
G21 ; set units to millimeters
G90 ; use absolute coordinates
M82 ; use absolute distances for extrusion
G92 E0
G1 Z0.350 F7800.000
G1 E-2.00000 F2400.00000
G92 E0
G1 X56.911 Y43.586 F7800.000
G1 E2.00000 F2400.00000
G1 X57.450 Y42.900 E2.07937 F1800.000
G1 X57.792 Y42.502 E2.12712
G1 X58.635 Y41.618 E2.23811
G1 X59.016 Y41.258 E2.28586
G1 X59.676 Y40.686 E2.36523
G1 X60.364 Y40.149 E2.44461
G1 X61.080 Y39.649 E2.52398
G1 X62.176 Y38.985 E2.64053
G1 X62.895 Y38.608 E2.71433
G1 X63.688 Y38.244 E2.79371
G1 X64.174 Y38.044 E2.84145
G1 X64.995 Y37.747 E2.92083
G1 X66.166 Y37.405 E3.03182
G1 X66.677 Y37.285 E3.07956
G1 X67.535 Y37.120 E3.15894
G1 X68.499 Y36.989 E3.24740
G1 X91.023 Y34.467 E5.30836
G1 X92.141 Y34.388 E5.41026
G1 X93.014 Y34.379 E5.48962
G1 X93.886 Y34.415 E5.56900 F1800.000
G1 X94.549 Y34.472 E5.62946
G1 X113.953 Y36.508 E7.40353
G1 X115.023 Y36.660 E7.50183
G1 X115.539 Y36.759 E7.54957
G1 X116.388 Y36.958 E7.62894
G1 X117.557 Y37.311 E7.73993
G1 X118.375 Y37.616 E7.81930
G1 X118.859 Y37.820 E7.86706
G1 X119.957 Y38.352 E7.97804
G1 X120.417 Y38.605 E8.02579
G1 X121.163 Y39.058 E8.10516
G1 X122.872 Y40.588 E8.31371
G1 X123.957 Y42.608 E8.52225
G1 X124.266 Y44.107 E8.66143
G1 X126.362 Y68.071 E10.84876
G1 X126.387 Y68.648 E10.90131
G1 X126.387 Y137.351 E17.14843
G1 X125.990 Y139.610 E17.35697
G1 X124.847 Y141.598 E17.56551
G1 X123.259 Y142.978 E17.75675
G1 X122.814 Y143.255 E17.80450
G1 X122.053 Y143.684 E17.88387
G1 X121.272 Y144.073 E17.96325
G1 X120.147 Y144.547 E18.07424
G1 X119.323 Y144.834 E18.15360
G1 X118.485 Y145.078 E18.23298
G1 X117.635 Y145.278 E18.31235
G1 X117.119 Y145.376 E18.36010
G1 X116.255 Y145.503 E18.43947
G1 X115.386 Y145.585 E18.51884
G1 X114.309 Y145.624 E18.61685
G1 X71.309 Y145.624 E22.52682
G1 X70.294 Y145.595 E22.61919
G1 X69.424 Y145.521 E22.69856
G1 X68.559 Y145.402 E22.77794
G1 X67.702 Y145.237 E22.85730
G1 X66.855 Y145.028 E22.93668
G1 X66.019 Y144.775 E23.01605
G1 X65.199 Y144.478 E23.09542
G1 X64.394 Y144.138 E23.17480
G1 X63.920 Y143.914 E23.22255
G1 X63.201 Y143.537 E23.29635
G1 X62.397 Y143.062 E23.38128
G1 X61.671 Y142.577 E23.46066
G1 X60.971 Y142.055 E23.54003
G1 X60.300 Y141.497 E23.61940
G1 X59.413 Y140.658 E23.73039
G1 X58.817 Y140.020 E23.80977
G1 X58.475 Y139.622 E23.85752
G1 X57.973 Y138.984 E23.93131
G1 X57.432 Y138.223 E24.01625
G1 X56.967 Y137.484 E24.09563
G1 X56.541 Y136.722 E24.17500
G1 X56.156 Y135.938 E24.25437
G1 X55.813 Y135.136 E24.33375
G1 X55.404 Y133.986 E24.44473
G1 X55.255 Y133.482 E24.49248
G1 X55.041 Y132.636 E24.57185
G1 X54.873 Y131.779 E24.65123
G1 X54.713 Y130.570 E24.76220
G1 X54.654 Y129.699 E24.84157
G1 X53.613 Y53.612 E31.76072
G1 X53.629 Y52.824 E31.83245
G1 X53.688 Y51.953 E31.91183
G1 X53.848 Y50.743 E32.02281
G1 X53.944 Y50.226 E32.07056
G1 X54.140 Y49.376 E32.14994
G1 X54.487 Y48.206 E32.26092
G1 X54.788 Y47.386 E32.34029
G1 X54.990 Y46.901 E32.38804
G1 X55.517 Y45.800 E32.49903
G1 X55.768 Y45.339 E32.54678
G1 X56.217 Y44.591 E32.62615
G1 X56.875 Y43.635 E32.73168
G1 E30.73168 F2400.00000
G92 E0
G1 X95.912 Y105.424 F7800.000
G1 E2.00000 F2400.00000
G1 X95.640 Y105.744 E2.03815 F1800.000
G1 X95.366 Y106.005 E2.07256
G1 X95.069 Y106.239 E2.10696
G1 X94.750 Y106.443 E2.14137
G1 X94.415 Y106.616 E2.17571
G1 X94.067 Y106.756 E2.20975
G1 X93.700 Y106.864 E2.24458
G1 X93.328 Y106.935 E2.27899
G1 X92.955 Y106.971 E2.31305
G1 X92.598 Y106.974 E2.34550
G1 X92.196 Y106.935 E2.38221
G1 X91.825 Y106.864 E2.41662
G1 X91.462 Y106.757 E2.45102
G1 X91.111 Y106.617 E2.48543
G1 X90.774 Y106.443 E2.51983
G1 X90.456 Y106.239 E2.55424
G1 X90.159 Y106.005 E2.58864
G1 X89.885 Y105.744 E2.62305
G1 X89.637 Y105.458 E2.65745
G1 X89.418 Y105.149 E2.69186
G1 X89.228 Y104.822 E2.72626
G1 X89.071 Y104.478 E2.76067
G1 X88.947 Y104.120 E2.79507
G1 X88.857 Y103.748 E2.82992
G1 X88.803 Y103.340 E2.86734
G1 X88.785 Y102.981 E2.90004
G1 X88.845 Y102.303 E2.96187
G1 X88.947 Y101.880 E3.00149
G1 X89.071 Y101.522 E3.03589
G1 X89.228 Y101.178 E3.07030
G1 X89.418 Y100.850 E3.10470
G1 X89.637 Y100.542 E3.13911
G1 X89.885 Y100.256 E3.17351
G1 X90.159 Y99.995 E3.20792
G1 X90.456 Y99.761 E3.24232
G1 X90.774 Y99.557 E3.27673
G1 X91.110 Y99.384 E3.31107
G1 X91.457 Y99.244 E3.34511
G1 X91.825 Y99.136 E3.37994
G1 X92.196 Y99.064 E3.41435
G1 X92.573 Y99.028 E3.44875
G1 X92.952 Y99.028 E3.48316 F1800.000
G1 X93.328 Y99.064 E3.51756
G1 X93.700 Y99.136 E3.55197
G1 X94.063 Y99.243 E3.58637
G1 X94.414 Y99.383 E3.62078
G1 X94.750 Y99.557 E3.65518
G1 X95.073 Y99.764 E3.69003
G1 X95.394 Y100.021 E3.72745
G1 X95.640 Y100.256 E3.75839
G1 X95.888 Y100.542 E3.79279
G1 X96.107 Y100.850 E3.82720
G1 X96.296 Y101.178 E3.86160
G1 X96.454 Y101.522 E3.89601
G1 X96.577 Y101.880 E3.93041
G1 X96.680 Y102.303 E3.97003
G1 X96.741 Y103.000 E4.03363
G1 X96.680 Y103.697 E4.09723
G1 X96.577 Y104.120 E4.13684
G1 X96.454 Y104.478 E4.17125
G1 X96.296 Y104.822 E4.20565
G1 X96.107 Y105.149 E4.24006
G1 X95.946 Y105.375 E4.26524
G1 X95.403 Y105.061 F7800.000
G1 X95.187 Y105.312 E4.29529 F1800.000
G1 X94.956 Y105.532 E4.32428
G1 X94.706 Y105.729 E4.35327
G1 X94.438 Y105.901 E4.38226
G1 X94.154 Y106.047 E4.41123
G1 X93.862 Y106.165 E4.43986
G1 X93.552 Y106.256 E4.46924
G1 X93.239 Y106.316 E4.49823
G1 X92.923 Y106.346 E4.52710
G1 X92.626 Y106.349 E4.55414
G1 X92.286 Y106.316 E4.58521
G1 X91.972 Y106.256 E4.61421
G1 X91.667 Y106.166 E4.64320
G1 X91.371 Y106.048 E4.67219
G1 X91.087 Y105.901 E4.70118
G1 X90.819 Y105.729 E4.73017
G1 X90.568 Y105.532 E4.75916
G1 X90.338 Y105.312 E4.78816
G1 X90.129 Y105.071 E4.81715
G1 X89.944 Y104.811 E4.84614
G1 X89.784 Y104.535 E4.87513
G1 X89.652 Y104.245 E4.90412
G1 X89.548 Y103.944 E4.93311
G1 X89.472 Y103.632 E4.96226
G1 X89.425 Y103.283 E4.99427
G1 X89.412 Y102.993 E5.02071
G1 X89.463 Y102.405 E5.07441
G1 X89.548 Y102.056 E5.10703
G1 X89.652 Y101.755 E5.13602
G1 X89.784 Y101.465 E5.16501
G1 X89.944 Y101.189 E5.19400
G1 X90.129 Y100.929 E5.22300
G1 X90.338 Y100.688 E5.25199
G1 X90.568 Y100.468 E5.28098
G1 X90.819 Y100.271 E5.30997
G1 X91.087 Y100.098 E5.33896
G1 X91.370 Y99.952 E5.36793
G1 X91.662 Y99.835 E5.39656
G1 X91.972 Y99.744 E5.42594
G1 X92.286 Y99.684 E5.45493
G1 X92.603 Y99.653 E5.48392
G1 X92.922 Y99.653 E5.51291 F1800.000
G1 X93.239 Y99.684 E5.54191
G1 X93.552 Y99.744 E5.57090
G1 X93.858 Y99.834 E5.59989
G1 X94.154 Y99.952 E5.62888
G1 X94.438 Y100.098 E5.65787
G1 X94.707 Y100.272 E5.68702
G1 X94.982 Y100.492 E5.71903
G1 X95.187 Y100.688 E5.74483
G1 X95.396 Y100.929 E5.77383
G1 X95.581 Y101.189 E5.80282
G1 X95.740 Y101.465 E5.83181
G1 X95.873 Y101.755 E5.86080
G1 X95.977 Y102.056 E5.88979
G1 X96.062 Y102.405 E5.92241
G1 X96.114 Y103.000 E5.97675
G1 X96.062 Y103.595 E6.03109
G1 X95.977 Y103.944 E6.06370
G1 X95.873 Y104.245 E6.09270
G1 X95.740 Y104.535 E6.12169
G1 X95.581 Y104.811 E6.15068
G1 X95.437 Y105.013 E6.17316
G1 X95.521 Y105.370 F7800.000
G1 X97.287 Y110.807 F7800.000
G1 X96.482 Y111.223 E6.25557 F1800.000
G1 X95.599 Y111.567 E6.34172
G1 X94.683 Y111.818 E6.42812
G1 X93.751 Y111.970 E6.51403
G1 X93.278 Y112.010 E6.55712
G1 X92.331 Y112.014 E6.64327
G1 X91.388 Y111.919 E6.72942
G1 X90.461 Y111.726 E6.81557
G1 X89.558 Y111.437 E6.90173
G1 X88.692 Y111.054 E6.98788
G1 X87.870 Y110.583 E7.07403
G1 X87.101 Y110.029 E7.16018
G1 X86.396 Y109.396 E7.24633
G1 X85.760 Y108.694 E7.33248
G1 X85.235 Y107.976 E7.41331
G1 X84.952 Y107.522 E7.46197
G1 X84.522 Y106.681 E7.54787
G1 X84.182 Y105.797 E7.63403
G1 X83.936 Y104.882 E7.72018
G1 X83.787 Y103.946 E7.80633
G1 X83.750 Y103.474 E7.84942
G1 X83.750 Y102.526 E7.93557
G1 X83.849 Y101.584 E8.02173
G1 X84.047 Y100.657 E8.10788
G1 X84.181 Y100.206 E8.15072
G1 X84.522 Y99.319 E8.23712
G1 X84.954 Y98.475 E8.32327
G1 X85.471 Y97.682 E8.40942
G1 X86.069 Y96.946 E8.49557
G1 X86.740 Y96.278 E8.58173
G1 X87.478 Y95.684 E8.66788
G1 X88.274 Y95.170 E8.75403
G1 X88.692 Y94.945 E8.79712
G1 X89.558 Y94.563 E8.88327
G1 X90.461 Y94.274 E8.96943
G1 X90.922 Y94.165 E9.01252
G1 X91.858 Y94.020 E9.09867
G1 X92.328 Y93.986 E9.14152
G1 X92.863 Y93.977 E9.19017
G1 X93.751 Y94.029 E9.27100
G1 X94.220 Y94.094 E9.31409
G1 X95.146 Y94.296 E9.40024
G1 X96.045 Y94.593 E9.48639
G1 X96.482 Y94.777 E9.52948
G1 X97.287 Y95.193 E9.61190
G1 X97.287 Y110.747 E11.02625
G1 X97.912 Y111.157 F7800.000
G1 X97.196 Y111.571 E11.10152 F1800.000
G1 X96.740 Y111.792 E11.14760
G1 X96.273 Y111.989 E11.19367
G1 X95.369 Y112.290 E11.28031
G1 X94.818 Y112.428 E11.33195
G1 X94.321 Y112.523 E11.37794
G1 X93.819 Y112.592 E11.42401
G1 X93.314 Y112.634 E11.47009
G1 X92.808 Y112.650 E11.51616
G1 X92.301 Y112.639 E11.56224
G1 X91.796 Y112.601 E11.60831
G1 X91.293 Y112.537 E11.65439
G1 X90.794 Y112.447 E11.70047
G1 X90.301 Y112.331 E11.74654
G1 X89.815 Y112.189 E11.79262
G1 X89.337 Y112.021 E11.83869
G1 X88.868 Y111.829 E11.88477
G1 X88.410 Y111.612 E11.93084
G1 X87.964 Y111.372 E11.97692
G1 X87.531 Y111.109 E12.02299
G1 X87.112 Y110.823 E12.06907
G1 X86.709 Y110.515 E12.11515
G1 X86.323 Y110.187 E12.16122
G1 X85.955 Y109.839 E12.20730
G1 X85.605 Y109.473 E12.25337
G1 X85.275 Y109.088 E12.29945
G1 X84.713 Y108.319 E12.38609
G1 X84.412 Y107.837 E12.43772
G1 X84.170 Y107.393 E12.48371
G1 X83.952 Y106.936 E12.52979
G1 X83.757 Y106.468 E12.57586
G1 X83.588 Y105.990 E12.62194
G1 X83.443 Y105.505 E12.66801
G1 X83.325 Y105.012 E12.71409
G1 X83.232 Y104.514 E12.76017
G1 X83.166 Y104.012 E12.80624
G1 X83.126 Y103.506 E12.85232
G1 X83.112 Y103.000 E12.89839
G1 X83.126 Y102.493 E12.94447
G1 X83.166 Y101.988 E12.99054
G1 X83.232 Y101.486 E13.03662
G1 X83.325 Y100.988 E13.08269
G1 X83.443 Y100.495 E13.12877
G1 X83.587 Y100.010 E13.17476
G1 X83.952 Y99.064 E13.26696
G1 X84.170 Y98.607 E13.31304
G1 X84.413 Y98.162 E13.35912
G1 X84.678 Y97.730 E13.40519
G1 X84.966 Y97.313 E13.45127
G1 X85.275 Y96.912 E13.49734
G1 X85.605 Y96.527 E13.54342
G1 X85.955 Y96.160 E13.58949
G1 X86.323 Y95.813 E13.63557
G1 X86.709 Y95.484 E13.68164
G1 X87.112 Y95.177 E13.72772
G1 X87.531 Y94.891 E13.77379
G1 X87.964 Y94.628 E13.81987
G1 X88.410 Y94.387 E13.86595
G1 X88.868 Y94.171 E13.91202
G1 X89.337 Y93.979 E13.95810
G1 X89.815 Y93.811 E14.00417
G1 X90.301 Y93.669 E14.05025
G1 X90.794 Y93.553 E14.09632
G1 X91.293 Y93.463 E14.14240
G1 X91.796 Y93.399 E14.18847
G1 X92.300 Y93.361 E14.23446
G1 X92.868 Y93.352 E14.28610
G1 X93.819 Y93.408 E14.37274
G1 X94.321 Y93.477 E14.41882
G1 X94.819 Y93.572 E14.46489
G1 X95.311 Y93.693 E14.51097
G1 X95.796 Y93.839 E14.55704
G1 X96.273 Y94.011 E14.60312
G1 X96.740 Y94.208 E14.64919
G1 X97.196 Y94.429 E14.69527
G1 X97.912 Y94.843 E14.77054
G1 X97.912 Y111.097 E16.24853
G1 X97.518 Y111.088 F7800.000
G1 X93.868 Y111.587 F7800.000
G1 X84.183 Y101.902 E17.52087 F1800.000
G1 X84.129 Y102.751 E17.59983
G1 X93.011 Y111.633 E18.76675
G1 X92.069 Y111.593 E18.85439
G1 X84.169 Y103.693 E19.89223
G1 X84.337 Y104.764 E19.99294
G1 X90.996 Y111.424 E20.86777
G1 X89.671 Y111.002 E20.99688
G1 X84.762 Y106.092 E21.64185
G1 X86.193 Y108.426 F7800.000
G1 X87.345 Y109.578 E21.79314 F1800.000
G1 X96.477 Y105.168 F7800.000
G1 X96.909 Y105.600 E21.84984 F1800.000
G1 X96.909 Y106.503 E21.93370
G1 X96.106 Y105.700 E22.03913
G1 X95.668 Y106.164 E22.09845
G1 X96.909 Y107.406 E22.26150
G1 X96.909 Y108.308 E22.34537
G1 X95.166 Y106.566 E22.57430
G1 X94.595 Y106.897 E22.63565
G1 X96.909 Y109.211 E22.93962
G1 X96.909 Y110.114 E23.02348
G1 X93.947 Y107.152 E23.41256
G1 X93.207 Y107.315 E23.48294
G1 X96.652 Y110.760 E23.93554
G1 X96.034 Y111.045 E23.99877
G1 X92.331 Y107.342 E24.48524
G1 X91.208 Y107.122 E24.59153
G1 X95.359 Y111.273 E25.13686
G1 X94.644 Y111.461 E25.20554
G1 X84.299 Y101.115 E26.56458
G1 X84.489 Y100.403 E26.63310
G1 X88.645 Y104.558 E27.17905
G1 X88.421 Y103.432 E27.28571
G1 X84.726 Y99.736 E27.77122
G1 X85.003 Y99.111 E27.83480
G1 X88.453 Y102.561 E28.28811
G1 X88.608 Y101.813 E28.35906
G1 X85.315 Y98.521 E28.79162
G1 X85.672 Y97.974 E28.85222
G1 X88.865 Y101.167 E29.27168
G1 X89.197 Y100.597 E29.33299
G1 X86.066 Y97.465 E29.74443
G1 X86.502 Y96.999 E29.80376
G1 X89.597 Y100.093 E30.21028
G1 X90.063 Y99.657 E30.26962
G1 X86.954 Y96.548 E30.67807
G1 X87.440 Y96.131 E30.73755
G1 X90.593 Y99.284 E31.15167
G1 X91.196 Y98.984 E31.21424
G1 X87.961 Y95.750 E31.63914
G1 X88.532 Y95.417 E31.70047
G1 X91.878 Y98.763 E32.14003
G1 X92.668 Y98.651 E32.21420
G1 X89.135 Y95.117 E32.67842
G1 X89.775 Y94.855 E32.74271
G1 X93.629 Y98.709 E33.24898
G1 X94.995 Y99.172 F7800.000
G1 X90.459 Y94.636 E33.84488 F1800.000
G1 X91.206 Y94.480 E33.91578
G1 X96.909 Y100.183 E34.66496
G1 X96.909 Y99.280 E34.74883
G1 X92.014 Y94.385 E35.39190
G1 X92.899 Y94.367 E35.47414
G1 X96.909 Y98.377 E36.00094
G1 X96.909 Y97.475 E36.08481
G1 X93.888 Y94.453 E36.48172
G1 X95.051 Y94.714 E36.59248
G1 X96.909 Y96.572 E36.83655
G1 X96.577 Y95.337 E36.95528
G1 X96.909 Y95.669 E36.99884
G1 X96.598 Y100.775 F7800.000
G1 X96.889 Y101.066 E37.03710 F1800.000
G1 E35.03710 F2400.00000
G92 E0
G1 X116.344 Y106.383 F7800.000
G1 E2.00000 F2400.00000
G1 X115.915 Y106.616 E2.04446 F1800.000
G1 X115.567 Y106.756 E2.07850
G1 X115.200 Y106.864 E2.11333
G1 X114.828 Y106.935 E2.14774
G1 X114.455 Y106.971 E2.18180
G1 X114.098 Y106.974 E2.21425
G1 X113.696 Y106.935 E2.25096
G1 X113.325 Y106.864 E2.28537
G1 X112.962 Y106.757 E2.31977
G1 X112.611 Y106.617 E2.35418
G1 X112.274 Y106.443 E2.38858
G1 X111.956 Y106.239 E2.42299
G1 X111.659 Y106.005 E2.45739
G1 X111.385 Y105.744 E2.49180
G1 X111.137 Y105.458 E2.52620
G1 X110.918 Y105.149 E2.56061
G1 X110.728 Y104.822 E2.59501
G1 X110.571 Y104.478 E2.62942
G1 X110.447 Y104.120 E2.66382
G1 X110.357 Y103.748 E2.69867
G1 X110.303 Y103.340 E2.73609
G1 X110.285 Y102.981 E2.76879
G1 X110.345 Y102.303 E2.83062
G1 X110.447 Y101.880 E2.87023
G1 X110.571 Y101.522 E2.90464
G1 X110.728 Y101.178 E2.93904
G1 X110.918 Y100.850 E2.97345
G1 X111.137 Y100.542 E3.00785
G1 X111.385 Y100.256 E3.04226
G1 X111.659 Y99.995 E3.07666
G1 X111.956 Y99.761 E3.11107
G1 X112.274 Y99.557 E3.14547
G1 X112.610 Y99.384 E3.17982
G1 X112.957 Y99.244 E3.21386
G1 X113.325 Y99.136 E3.24869
G1 X113.696 Y99.064 E3.28310
G1 X114.073 Y99.028 E3.31750
G1 X114.452 Y99.028 E3.35191 F1800.000
G1 X114.828 Y99.064 E3.38631
G1 X115.200 Y99.136 E3.42072
G1 X115.563 Y99.243 E3.45512
G1 X115.914 Y99.383 E3.48953
G1 X116.250 Y99.557 E3.52393
G1 X116.573 Y99.764 E3.55878
G1 X116.894 Y100.021 E3.59620
G1 X117.140 Y100.256 E3.62713
G1 X117.388 Y100.542 E3.66154
G1 X117.607 Y100.850 E3.69594
G1 X117.796 Y101.178 E3.73035
G1 X117.954 Y101.522 E3.76475
G1 X118.077 Y101.880 E3.79916
G1 X118.180 Y102.303 E3.83878
G1 X118.241 Y103.000 E3.90237
G1 X118.180 Y103.697 E3.96597
G1 X118.077 Y104.120 E4.00559
G1 X117.954 Y104.478 E4.03999
G1 X117.796 Y104.822 E4.07440
G1 X117.607 Y105.149 E4.10880
G1 X117.388 Y105.458 E4.14321
G1 X117.140 Y105.744 E4.17761
G1 X116.866 Y106.005 E4.21202
G1 X116.569 Y106.239 E4.24642
G1 X116.395 Y106.350 E4.26522
G1 X116.006 Y105.857 F7800.000
G1 X115.654 Y106.047 E4.30161 F1800.000
G1 X115.362 Y106.165 E4.33024
G1 X115.052 Y106.256 E4.35962
G1 X114.739 Y106.316 E4.38861
G1 X114.423 Y106.346 E4.41748
G1 X114.126 Y106.349 E4.44451
G1 X113.786 Y106.316 E4.47559
G1 X113.472 Y106.256 E4.50458
G1 X113.167 Y106.166 E4.53358
G1 X112.871 Y106.048 E4.56257
G1 X112.587 Y105.901 E4.59156
G1 X112.319 Y105.729 E4.62055
G1 X112.068 Y105.532 E4.64954
G1 X111.838 Y105.312 E4.67853
G1 X111.629 Y105.071 E4.70752
G1 X111.444 Y104.811 E4.73652
G1 X111.284 Y104.535 E4.76551
G1 X111.152 Y104.245 E4.79450
G1 X111.048 Y103.944 E4.82349
G1 X110.972 Y103.632 E4.85264
G1 X110.925 Y103.283 E4.88465
G1 X110.912 Y102.993 E4.91109
G1 X110.963 Y102.405 E4.96479
G1 X111.048 Y102.056 E4.99741
G1 X111.152 Y101.755 E5.02640
G1 X111.284 Y101.465 E5.05539
