; generated by Slic3r 1.2.9 on 2016-05-26 at 17:02:07

; external perimeters extrusion width = 0.40mm
; perimeters extrusion width = 0.48mm
; infill extrusion width = 0.48mm
; solid infill extrusion width = 0.48mm
; top infill extrusion width = 0.48mm

M107
M190 S60 ; set bed temperature
M104 S220 ; set temperature
G28 ; home all axes
G1 Z5 F5000 ; lift nozzle

M109 S220 ; wait for temperature to be reached
G21 ; set units to millimeters
G90 ; use absolute coordinates
M82 ; use absolute distances for extrusion
G92 E0
G1 Z0.350 F7800.000
G1 E-2.00000 F2400.00000
G92 E0
G1 X73.405 Y60.703 F7800.000
G1 E2.00000 F2400.00000
G1 X90.245 Y40.339 E4.40276 F1800.000
G1 X91.000 Y39.497 E4.50562
G1 X91.637 Y38.868 E4.58698
G1 X92.036 Y38.507 E4.63593
G1 X93.006 Y37.717 E4.74968
G1 X93.735 Y37.199 E4.83105
G1 X94.491 Y36.721 E4.91240
G1 X94.958 Y36.453 E4.96134
G1 X95.753 Y36.041 E5.04270
G1 X96.568 Y35.673 E5.12405
G1 X97.402 Y35.349 E5.20541
G1 X98.595 Y34.972 E5.31917
G1 X99.464 Y34.758 E5.40051
G1 X100.343 Y34.592 E5.48188
G1 X100.876 Y34.514 E5.53083
G1 X101.766 Y34.424 E5.61218
G1 X103.047 Y34.379 E5.72876
G1 X103.910 Y34.403 E5.80729 F1800.000
G1 X104.802 Y34.476 E5.88865
G1 X105.689 Y34.597 E5.97001
G1 X106.218 Y34.692 E6.01895
G1 X107.436 Y34.981 E6.13271
G1 X108.291 Y35.243 E6.21405
G1 X108.799 Y35.422 E6.26301
G1 X109.629 Y35.757 E6.34436
G1 X110.439 Y36.135 E6.42572
G1 X111.228 Y36.557 E6.50708
G1 X111.993 Y37.021 E6.58843
G1 X113.605 Y38.428 E6.78299
G1 X135.105 Y64.427 E9.85070
G1 X136.239 Y66.421 E10.05924
G1 X136.625 Y68.649 E10.26487
G1 X136.625 Y111.351 E14.14777
G1 X136.228 Y113.610 E14.35631
G1 X135.105 Y115.573 E14.56194
G1 X113.605 Y141.572 E17.62965
G1 X111.993 Y142.979 E17.82420
G1 X111.228 Y143.443 E17.90556
G1 X110.756 Y143.702 E17.95450
G1 X109.629 Y144.243 E18.06826
G1 X109.132 Y144.450 E18.11720
G1 X108.291 Y144.757 E18.19856
G1 X107.091 Y145.111 E18.31232
G1 X106.567 Y145.235 E18.36126
G1 X105.689 Y145.403 E18.44262
G1 X104.802 Y145.524 E18.52397
G1 X103.910 Y145.597 E18.60533
G1 X102.902 Y145.623 E18.69702
G1 X81.402 Y145.623 E20.65201
G1 X80.266 Y145.576 E20.75544
G1 X79.376 Y145.486 E20.83680
G1 X78.492 Y145.348 E20.91816
G1 X77.617 Y145.162 E20.99951
G1 X76.752 Y144.930 E21.08087
G1 X76.239 Y144.768 E21.12981
G1 X75.428 Y144.473 E21.20831
G1 X74.575 Y144.111 E21.29252
G1 X73.772 Y143.717 E21.37388
G1 X72.687 Y143.094 E21.48764
G1 X71.942 Y142.599 E21.56899
G1 X71.224 Y142.065 E21.65035
G1 X70.536 Y141.493 E21.73171
G1 X69.879 Y140.885 E21.81306
G1 X69.256 Y140.243 E21.89442
G1 X68.745 Y139.661 E21.96488
G1 X47.169 Y113.569 E25.04349
G1 X46.834 Y113.148 E25.09244
G1 X46.325 Y112.450 E25.17094
G1 X45.820 Y111.674 E25.25515
G1 X45.373 Y110.899 E25.33650
G1 X44.821 Y109.777 E25.45026
G1 X44.478 Y108.950 E25.53162
G1 X44.180 Y108.106 E25.61298
G1 X43.929 Y107.248 E25.69433
G1 X43.799 Y106.725 E25.74328
G1 X43.622 Y105.848 E25.82463
G1 X43.493 Y104.963 E25.90601
G1 X43.411 Y104.072 E25.98736
G1 X43.377 Y103.177 E26.06873
G1 X43.411 Y101.927 E26.18246
G1 X43.493 Y101.036 E26.26382
G1 X43.622 Y100.151 E26.34517
G1 X43.799 Y99.274 E26.42653
G1 X43.929 Y98.751 E26.47547
G1 X44.171 Y97.923 E26.55397
G1 X44.478 Y97.049 E26.63818
G1 X44.821 Y96.223 E26.71953
G1 X45.207 Y95.416 E26.80089
G1 X45.637 Y94.631 E26.88226
G1 X46.307 Y93.574 E26.99601
G1 X46.834 Y92.851 E27.07736
G1 X47.245 Y92.337 E27.13721
G1 X73.367 Y60.749 E30.86442
G1 E28.86442 F2400.00000
G92 E0
G1 X106.074 Y105.522 F7800.000
G1 E2.00000 F2400.00000
G1 X105.811 Y105.811 E2.03548 F1800.000
G1 X105.522 Y106.073 E2.07096
G1 X105.209 Y106.305 E2.10644
G1 X104.874 Y106.506 E2.14192
G1 X104.522 Y106.673 E2.17740
G1 X104.154 Y106.804 E2.21288
G1 X103.776 Y106.899 E2.24836
G1 X103.390 Y106.956 E2.28384
G1 X103.000 Y106.976 E2.31932
G1 X102.610 Y106.956 E2.35480
G1 X102.224 Y106.899 E2.39028
G1 X101.846 Y106.804 E2.42576
G1 X101.478 Y106.673 E2.46124
G1 X101.126 Y106.506 E2.49672
G1 X100.791 Y106.305 E2.53220
G1 X100.478 Y106.073 E2.56768
G1 X100.189 Y105.811 E2.60316
G1 X99.926 Y105.522 E2.63864
G1 X99.694 Y105.209 E2.67412
G1 X99.493 Y104.874 E2.70960
G1 X99.327 Y104.521 E2.74508
G1 X99.197 Y104.158 E2.78014
G1 X99.105 Y103.805 E2.81328
G1 X99.043 Y103.389 E2.85153
G1 X99.024 Y103.000 E2.88701
G1 X99.043 Y102.610 E2.92249
G1 X99.100 Y102.224 E2.95797
G1 X99.195 Y101.845 E2.99345
G1 X99.327 Y101.478 E3.02893
G1 X99.493 Y101.125 E3.06441
G1 X99.694 Y100.791 E3.09989
G1 X99.926 Y100.477 E3.13537
G1 X100.189 Y100.188 E3.17085
G1 X100.478 Y99.926 E3.20633
G1 X100.791 Y99.694 E3.24181
G1 X101.126 Y99.493 E3.27729
G1 X101.478 Y99.326 E3.31277
G1 X101.841 Y99.196 E3.34783
G1 X102.197 Y99.104 E3.38119
G1 X102.630 Y99.042 E3.42100
G1 X103.000 Y99.023 E3.45470 F1800.000
G1 X103.390 Y99.043 E3.49018
G1 X103.776 Y99.100 E3.52566
G1 X104.154 Y99.195 E3.56114
G1 X104.522 Y99.326 E3.59662
G1 X104.874 Y99.493 E3.63210
G1 X105.209 Y99.694 E3.66758
G1 X105.522 Y99.926 E3.70306
G1 X105.811 Y100.188 E3.73854
G1 X106.074 Y100.477 E3.77402
G1 X106.306 Y100.791 E3.80950
G1 X106.507 Y101.125 E3.84498
G1 X106.673 Y101.478 E3.88046
G1 X106.803 Y101.841 E3.91552
G1 X106.895 Y102.194 E3.94866
G1 X106.957 Y102.610 E3.98691
G1 X106.976 Y103.000 E4.02239
G1 X106.957 Y103.389 E4.05787
G1 X106.900 Y103.775 E4.09335
G1 X106.805 Y104.154 E4.12883
G1 X106.673 Y104.521 E4.16431
G1 X106.507 Y104.874 E4.19979
G1 X106.306 Y105.209 E4.23527
G1 X106.109 Y105.474 E4.26529
G1 X105.590 Y105.125 F7800.000
G1 X105.369 Y105.369 E4.29519 F1800.000
G1 X105.125 Y105.589 E4.32509
G1 X104.861 Y105.785 E4.35498
G1 X104.579 Y105.954 E4.38488
G1 X104.282 Y106.095 E4.41478
G1 X103.973 Y106.206 E4.44468
G1 X103.654 Y106.286 E4.47457
G1 X103.328 Y106.334 E4.50447
G1 X103.000 Y106.350 E4.53437
G1 X102.672 Y106.334 E4.56426
G1 X102.346 Y106.286 E4.59416
G1 X102.027 Y106.206 E4.62406
G1 X101.718 Y106.095 E4.65395
G1 X101.421 Y105.954 E4.68385
G1 X101.139 Y105.785 E4.71375
G1 X100.875 Y105.589 E4.74365
G1 X100.631 Y105.369 E4.77354
G1 X100.410 Y105.125 E4.80344
G1 X100.214 Y104.861 E4.83334
G1 X100.045 Y104.579 E4.86323
G1 X99.905 Y104.282 E4.89313
G1 X99.794 Y103.974 E4.92288
G1 X99.718 Y103.680 E4.95044
G1 X99.666 Y103.328 E4.98284
G1 X99.650 Y103.000 E5.01273
G1 X99.666 Y102.671 E5.04263
G1 X99.714 Y102.346 E5.07253
G1 X99.794 Y102.027 E5.10242
G1 X99.905 Y101.717 E5.13232
G1 X100.045 Y101.420 E5.16222
G1 X100.214 Y101.138 E5.19211
G1 X100.410 Y100.874 E5.22201
G1 X100.631 Y100.630 E5.25191
G1 X100.875 Y100.410 E5.28181
G1 X101.139 Y100.214 E5.31170
G1 X101.421 Y100.045 E5.34160
G1 X101.718 Y99.904 E5.37150
G1 X102.026 Y99.794 E5.40124
G1 X102.320 Y99.717 E5.42888
G1 X102.690 Y99.664 E5.46284
G1 X103.000 Y99.649 E5.49109 F1800.000
G1 X103.328 Y99.665 E5.52099
G1 X103.654 Y99.713 E5.55089
G1 X103.973 Y99.793 E5.58078
G1 X104.282 Y99.904 E5.61068
G1 X104.579 Y100.045 E5.64058
G1 X104.861 Y100.214 E5.67047
G1 X105.125 Y100.410 E5.70037
G1 X105.369 Y100.630 E5.73027
G1 X105.590 Y100.874 E5.76017
G1 X105.786 Y101.138 E5.79006
G1 X105.955 Y101.420 E5.81996
G1 X106.095 Y101.717 E5.84986
G1 X106.206 Y102.025 E5.87960
G1 X106.282 Y102.319 E5.90716
G1 X106.334 Y102.671 E5.93956
G1 X106.350 Y103.000 E5.96946
G1 X106.334 Y103.328 E5.99935
G1 X106.286 Y103.653 E6.02925
G1 X106.206 Y103.972 E6.05915
G1 X106.095 Y104.282 E6.08905
G1 X105.955 Y104.579 E6.11894
G1 X105.786 Y104.861 E6.14884
G1 X105.626 Y105.077 E6.17328
G1 X105.701 Y105.435 F7800.000
G1 X107.525 Y110.807 F7800.000
G1 X107.125 Y111.026 E6.21477 F1800.000
G1 X106.687 Y111.237 E6.25894
G1 X105.779 Y111.586 E6.34738
G1 X105.315 Y111.722 E6.39141
G1 X104.842 Y111.834 E6.43558
G1 X104.364 Y111.921 E6.47975
G1 X103.882 Y111.981 E6.52392
G1 X103.398 Y112.016 E6.56808
G1 X102.912 Y112.024 E6.61225
G1 X102.427 Y112.006 E6.65642
G1 X101.973 Y111.965 E6.69786
G1 X101.461 Y111.892 E6.74488
G1 X100.986 Y111.797 E6.78892
G1 X100.515 Y111.676 E6.83309
G1 X100.052 Y111.529 E6.87725
G1 X99.598 Y111.358 E6.92142
G1 X99.153 Y111.163 E6.96559
G1 X98.719 Y110.944 E7.00976
G1 X98.298 Y110.703 E7.05393
G1 X97.890 Y110.438 E7.09809
G1 X97.497 Y110.153 E7.14226
G1 X97.121 Y109.846 E7.18643
G1 X96.761 Y109.520 E7.23060
G1 X96.095 Y108.811 E7.31903
G1 X95.793 Y108.432 E7.36307
G1 X95.512 Y108.036 E7.40723
G1 X95.251 Y107.626 E7.45140
G1 X95.014 Y107.203 E7.49557
G1 X94.799 Y106.767 E7.53974
G1 X94.608 Y106.320 E7.58391
G1 X94.442 Y105.864 E7.62807
G1 X94.300 Y105.399 E7.67224
G1 X94.184 Y104.928 E7.71641
G1 X94.027 Y103.968 E7.80484
G1 X93.988 Y103.485 E7.84888
G1 X93.975 Y103.000 E7.89305
G1 X93.988 Y102.514 E7.93722
G1 X94.027 Y102.030 E7.98138
G1 X94.093 Y101.548 E8.02555
G1 X94.184 Y101.071 E8.06972
G1 X94.300 Y100.600 E8.11389
G1 X94.442 Y100.135 E8.15805
G1 X94.608 Y99.679 E8.20222
G1 X94.799 Y99.232 E8.24639
G1 X95.014 Y98.796 E8.29056
G1 X95.251 Y98.373 E8.33473
G1 X95.512 Y97.963 E8.37889
G1 X95.793 Y97.567 E8.42306
G1 X96.096 Y97.187 E8.46723
G1 X96.419 Y96.824 E8.51140
G1 X96.760 Y96.480 E8.55543
G1 X97.497 Y95.846 E8.64387
G1 X97.890 Y95.561 E8.68803
G1 X98.298 Y95.296 E8.73220
G1 X98.719 Y95.055 E8.77637
G1 X99.153 Y94.836 E8.82054
G1 X99.598 Y94.641 E8.86471
G1 X100.052 Y94.470 E8.90887
G1 X100.515 Y94.323 E8.95304
G1 X100.986 Y94.202 E8.99721
G1 X101.462 Y94.107 E9.04138
G1 X101.943 Y94.037 E9.08554
G1 X102.425 Y93.993 E9.12958
G1 X102.942 Y93.976 E9.17660
G1 X103.398 Y93.984 E9.21804
G1 X103.882 Y94.018 E9.26221
G1 X104.364 Y94.078 E9.30638
G1 X104.842 Y94.165 E9.35055
G1 X105.315 Y94.277 E9.39471
G1 X105.781 Y94.414 E9.43888
G1 X106.239 Y94.576 E9.48305
G1 X106.687 Y94.762 E9.52722
G1 X107.125 Y94.973 E9.57139
G1 X107.525 Y95.192 E9.61288
G1 X107.525 Y110.747 E11.02728
G1 X108.150 Y111.156 F7800.000
G1 X107.411 Y111.582 E11.10486 F1800.000
G1 X106.943 Y111.807 E11.15209
G1 X106.491 Y111.995 E11.19651
G1 X105.973 Y112.180 E11.24658
G1 X105.475 Y112.327 E11.29376
G1 X104.970 Y112.446 E11.34099
G1 X104.459 Y112.539 E11.38822
G1 X103.943 Y112.603 E11.43545
G1 X103.425 Y112.640 E11.48267
G1 X102.906 Y112.649 E11.52990
G1 X102.387 Y112.630 E11.57713
G1 X101.900 Y112.586 E11.62155
G1 X101.355 Y112.508 E11.67162
G1 X100.846 Y112.406 E11.71880
G1 X100.343 Y112.277 E11.76603
G1 X99.848 Y112.120 E11.81326
G1 X99.362 Y111.937 E11.86049
G1 X98.886 Y111.729 E11.90771
G1 X98.423 Y111.495 E11.95494
G1 X97.972 Y111.236 E12.00217
G1 X97.536 Y110.954 E12.04939
G1 X97.116 Y110.648 E12.09662
G1 X96.713 Y110.321 E12.14385
G1 X96.329 Y109.972 E12.19107
G1 X95.985 Y109.625 E12.23549
G1 X95.618 Y109.214 E12.28557
G1 X95.294 Y108.808 E12.33275
G1 X94.993 Y108.385 E12.37998
G1 X94.715 Y107.947 E12.42721
G1 X94.461 Y107.494 E12.47443
G1 X94.231 Y107.028 E12.52166
G1 X94.027 Y106.550 E12.56889
G1 X93.849 Y106.062 E12.61611
G1 X93.698 Y105.566 E12.66334
G1 X93.573 Y105.061 E12.71057
G1 X93.481 Y104.581 E12.75499
G1 X93.406 Y104.036 E12.80507
G1 X93.364 Y103.519 E12.85225
G1 X93.350 Y103.000 E12.89947
G1 X93.364 Y102.480 E12.94670
G1 X93.406 Y101.963 E12.99393
G1 X93.476 Y101.448 E13.04115
G1 X93.573 Y100.938 E13.08838
G1 X93.698 Y100.434 E13.13561
G1 X93.849 Y99.937 E13.18284
G1 X94.027 Y99.449 E13.23006
G1 X94.231 Y98.971 E13.27729
G1 X94.461 Y98.505 E13.32452
G1 X94.715 Y98.052 E13.37174
G1 X94.993 Y97.614 E13.41897
G1 X95.294 Y97.191 E13.46620
G1 X95.618 Y96.785 E13.51343
G1 X95.963 Y96.396 E13.56065
G1 X96.328 Y96.028 E13.60783
G1 X96.737 Y95.659 E13.65791
G1 X97.116 Y95.351 E13.70233
G1 X97.536 Y95.045 E13.74956
G1 X97.972 Y94.763 E13.79678
G1 X98.423 Y94.504 E13.84401
G1 X98.886 Y94.270 E13.89124
G1 X99.362 Y94.062 E13.93847
G1 X99.848 Y93.879 E13.98569
G1 X100.343 Y93.723 E14.03292
G1 X100.846 Y93.593 E14.08015
G1 X101.356 Y93.491 E14.12737
G1 X101.870 Y93.416 E14.17460
G1 X102.386 Y93.369 E14.22178
G1 X102.937 Y93.351 E14.27186
G1 X103.425 Y93.359 E14.31628
G1 X103.943 Y93.396 E14.36351
G1 X104.459 Y93.461 E14.41073
G1 X104.970 Y93.553 E14.45796
G1 X105.475 Y93.672 E14.50519
G1 X105.973 Y93.819 E14.55241
G1 X106.463 Y93.992 E14.59964
G1 X106.943 Y94.192 E14.64687
G1 X107.411 Y94.417 E14.69410
G1 X108.150 Y94.843 E14.77168
G1 X108.150 Y111.096 E16.24963
G1 X107.756 Y111.087 F7800.000
G1 X106.868 Y105.549 F7800.000
G1 X107.081 Y104.697 E16.32945 F1800.000
G1 X107.194 Y103.961 E16.39717
G1 X107.194 Y102.030 F7800.000
G1 X107.081 Y101.302 E16.46416 F1800.000
G1 X106.868 Y100.451 E16.54397
G1 X105.232 Y99.167 F7800.000
G1 X100.702 Y94.637 E17.13964 F1800.000
G1 X101.443 Y94.474 E17.21020
G1 X107.017 Y100.048 E17.94316
G1 X107.147 Y99.274 E18.01616
G1 X102.250 Y94.378 E18.65999
G1 X103.140 Y94.363 E18.74270
G1 X107.147 Y98.370 E19.26958
G1 X107.147 Y97.466 E19.35361
G1 X104.128 Y94.448 E19.75052
G1 X105.293 Y94.710 E19.86157
G1 X107.147 Y96.563 E20.10525
G1 X106.811 Y95.323 E20.22463
G1 X107.147 Y95.659 E20.26877
G1 X103.872 Y98.710 F7800.000
G1 X100.011 Y94.849 E20.77651 F1800.000
G1 X99.367 Y95.109 E20.84105
G1 X102.913 Y98.655 E21.30732
G1 X102.118 Y98.763 E21.38197
G1 X98.764 Y95.410 E21.82295
G1 X98.201 Y95.750 E21.88415
G1 X101.431 Y98.980 E22.30891
G1 X100.832 Y99.285 E22.37139
G1 X97.671 Y96.124 E22.78708
G1 X97.185 Y96.541 E22.84667
G1 X100.297 Y99.654 E23.25600
G1 X99.835 Y100.096 E23.31543
G1 X96.733 Y96.993 E23.72340
G1 X96.295 Y97.459 E23.78284
G1 X99.432 Y100.596 E24.19542
G1 X99.102 Y101.170 E24.25694
G1 X95.905 Y97.973 E24.67736
G1 X95.548 Y98.520 E24.73807
G1 X98.843 Y101.815 E25.17136
G1 X98.686 Y102.561 E25.24227
G1 X95.232 Y99.108 E25.69638
G1 X94.953 Y99.731 E25.75995
G1 X98.660 Y103.439 E26.24744
G1 X98.886 Y104.568 E26.35455
G1 X94.721 Y100.404 E26.90215
G1 X94.536 Y101.122 E26.97116
G1 X104.878 Y111.464 E28.33109
G1 X105.596 Y111.278 E28.40002
G1 X101.431 Y107.114 E28.94764
G1 X102.561 Y107.340 E29.05475
G1 X106.267 Y111.046 E29.54206
G1 X106.892 Y110.767 E29.60571
G1 X103.439 Y107.314 E30.05986
G1 X104.185 Y107.156 E30.13077
G1 X107.147 Y110.118 E30.52022
G1 X107.147 Y109.214 E30.60425
G1 X104.830 Y106.897 E30.90891
G1 X105.403 Y106.567 E30.97044
G1 X107.147 Y108.311 E31.19971
G1 X107.147 Y107.407 E31.28373
G1 X105.904 Y106.164 E31.44713
G1 X106.534 Y105.890 E31.51099
G1 X107.147 Y106.503 E31.59156
G1 X104.098 Y111.588 F7800.000
G1 X94.410 Y101.900 E32.86549 F1800.000
G1 X94.357 Y102.751 E32.94472
G1 X103.248 Y111.642 E34.11388
G1 X102.296 Y111.593 E34.20256
G1 X94.396 Y103.693 E35.24133
G1 X94.572 Y104.773 E35.34304
G1 X101.229 Y111.430 E36.21842
G1 X99.905 Y111.009 E36.34760
G1 X94.993 Y106.098 E36.99348
G1 X96.466 Y108.474 F7800.000
G1 X97.549 Y109.558 E37.13601 F1800.000
G1 E35.13601 F2400.00000
G92 E0
G1 X126.709 Y106.305 F7800.000
G1 E2.00000 F2400.00000
G1 X126.374 Y106.506 E2.03548 F1800.000
G1 X126.022 Y106.673 E2.07096
G1 X125.654 Y106.804 E2.10644
G1 X125.276 Y106.899 E2.14192
G1 X124.890 Y106.956 E2.17740
G1 X124.500 Y106.976 E2.21288
G1 X124.110 Y106.956 E2.24836
G1 X123.724 Y106.899 E2.28384
G1 X123.346 Y106.804 E2.31932
G1 X122.978 Y106.673 E2.35480
G1 X122.626 Y106.506 E2.39028
G1 X122.291 Y106.305 E2.42576
G1 X121.978 Y106.073 E2.46124
G1 X121.689 Y105.811 E2.49672
G1 X121.426 Y105.522 E2.53220
G1 X121.194 Y105.209 E2.56768
G1 X120.993 Y104.874 E2.60316
G1 X120.827 Y104.521 E2.63864
G1 X120.697 Y104.158 E2.67370
G1 X120.605 Y103.805 E2.70684
G1 X120.543 Y103.389 E2.74509
G1 X120.524 Y103.000 E2.78057
G1 X120.543 Y102.610 E2.81605
G1 X120.600 Y102.224 E2.85153
G1 X120.695 Y101.845 E2.88701
G1 X120.827 Y101.478 E2.92249
G1 X120.993 Y101.125 E2.95797
G1 X121.194 Y100.791 E2.99345
G1 X121.426 Y100.477 E3.02893
G1 X121.689 Y100.188 E3.06441
G1 X121.978 Y99.926 E3.09989
G1 X122.291 Y99.694 E3.13537
G1 X122.626 Y99.493 E3.17085
G1 X122.978 Y99.326 E3.20633
G1 X123.341 Y99.196 E3.24139
G1 X123.697 Y99.104 E3.27475
G1 X124.130 Y99.042 E3.31456
G1 X124.500 Y99.023 E3.34826 F1800.000
G1 X124.890 Y99.043 E3.38374
G1 X125.276 Y99.100 E3.41922
G1 X125.654 Y99.195 E3.45470
G1 X126.022 Y99.326 E3.49018
G1 X126.374 Y99.493 E3.52566
G1 X126.709 Y99.694 E3.56114
G1 X127.022 Y99.926 E3.59662
G1 X127.311 Y100.188 E3.63210
G1 X127.574 Y100.477 E3.66758
G1 X127.806 Y100.791 E3.70306
G1 X128.007 Y101.125 E3.73854
G1 X128.173 Y101.478 E3.77402
