; generated by Slic3r 1.2.9 on 2016-05-10 at 22:32:59

; external perimeters extrusion width = 0.40mm
; perimeters extrusion width = 0.48mm
; infill extrusion width = 0.48mm
; solid infill extrusion width = 0.48mm
; top infill extrusion width = 0.48mm

M107
M190 S60 ; set bed temperature
M104 S220 ; set temperature
G28 ; home all axes
G1 Z5 F5000 ; lift nozzle

M109 S220 ; wait for temperature to be reached
G21 ; set units to millimeters
G90 ; use absolute coordinates
M82 ; use absolute distances for extrusion
G92 E0
G1 Z0.350 F7800.000
G1 E-2.00000 F2400.00000
G92 E0
G1 X54.921 Y55.535 F7800.000
G1 E2.00000 F2400.00000
G1 X56.393 Y54.099 E2.18700 F1800.000
G1 X56.942 Y53.590 E2.25509
G1 X58.767 Y52.013 E2.47435
G1 X60.666 Y50.528 E2.69361
G1 X62.636 Y49.138 E2.91287
G1 X63.959 Y48.283 E3.05599
G1 X64.672 Y47.846 E3.13214
G1 X66.007 Y47.073 E3.27234
G1 X66.769 Y46.655 E3.35141
G1 X68.111 Y45.963 E3.48869
G1 X68.922 Y45.568 E3.57068
G1 X70.266 Y44.955 E3.70504
G1 X71.273 Y44.528 E3.80451
G1 X73.374 Y43.718 E4.00921
G1 X74.710 Y43.259 E4.13772
G1 X75.662 Y42.958 E4.22848
G1 X76.989 Y42.575 E4.35407
G1 X77.985 Y42.312 E4.44775
G1 X79.298 Y42.001 E4.57043
G1 X80.494 Y41.750 E4.68158
G1 X81.792 Y41.512 E4.80156
G1 X82.871 Y41.342 E4.90085
G1 X84.147 Y41.172 E5.01791
G1 X85.264 Y41.051 E5.12013
G1 X86.515 Y40.946 E5.23426
G1 X87.669 Y40.877 E5.33940
G1 X88.892 Y40.835 E5.45061
G1 X91.108 Y40.835 E5.65216
G1 X92.331 Y40.877 E5.76338 F1800.000
G1 X93.485 Y40.946 E5.86851
G1 X94.895 Y41.066 E5.99720
G1 X96.015 Y41.191 E6.09965
G1 X97.288 Y41.365 E6.21647
G1 X98.368 Y41.539 E6.31600
G1 X99.506 Y41.750 E6.42119
G1 X100.702 Y42.001 E6.53235
G1 X102.015 Y42.312 E6.65502
G1 X103.011 Y42.575 E6.74870
G1 X105.135 Y43.209 E6.95026
G1 X106.476 Y43.664 E7.07900
G1 X107.380 Y43.996 E7.16660
G1 X108.727 Y44.528 E7.29827
G1 X109.585 Y44.890 E7.38296
G1 X111.078 Y45.568 E7.53209
G1 X111.889 Y45.963 E7.61409
G1 X113.231 Y46.655 E7.75137
G1 X115.190 Y47.764 E7.95607
G1 X116.041 Y48.283 E8.04677
G1 X117.230 Y49.049 E8.17534
G1 X118.029 Y49.592 E8.26312
G1 X119.821 Y50.895 E8.46468
G1 X121.678 Y52.383 E8.68101
G1 X123.460 Y53.960 E8.89737
G1 X124.888 Y55.342 E9.07808
G1 X126.546 Y57.096 E9.29756
G1 X127.911 Y58.677 E9.48748
G1 X129.402 Y60.575 E9.70695
G1 X130.798 Y62.544 E9.92643
G1 X132.264 Y64.858 E10.17546
G1 X133.446 Y66.962 E10.39494
G1 X134.385 Y68.827 E10.58486
G1 X135.371 Y71.031 E10.80434
G1 X136.247 Y73.280 E11.02382
G1 X137.012 Y75.569 E11.24330
G1 X137.663 Y77.893 E11.46277
G1 X138.263 Y80.566 E11.71181
G1 X138.620 Y82.624 E11.90173
G1 X138.924 Y85.018 E12.12120
G1 X139.109 Y87.425 E12.34068
G1 X139.176 Y89.837 E12.56016
G1 X139.111 Y92.536 E12.80559
G1 X138.931 Y94.906 E13.02169
G1 X138.637 Y97.264 E13.23779
G1 X138.291 Y99.291 E13.42479
G1 X137.786 Y101.613 E13.64089
G1 X137.169 Y103.908 E13.85700
G1 X136.442 Y106.171 E14.07310
G1 X135.486 Y108.692 E14.31830
G1 X134.529 Y110.868 E14.53440
G1 X133.469 Y112.995 E14.75051
G1 X132.470 Y114.792 E14.93750
G1 X131.222 Y116.815 E15.15361
G1 X129.879 Y118.776 E15.36971
G1 X128.442 Y120.669 E15.58581
G1 X126.915 Y122.490 E15.80191
G1 X125.302 Y124.236 E16.01801
G1 X123.607 Y125.901 E16.23411
G1 X123.058 Y126.410 E16.30221
G1 X121.678 Y127.617 E16.46887
G1 X119.821 Y129.105 E16.68522
G1 X117.895 Y130.501 E16.90155
G1 X116.041 Y131.717 E17.10311
G1 X115.190 Y132.236 E17.19380
G1 X113.852 Y133.007 E17.33424
G1 X111.889 Y134.038 E17.53580
G1 X110.933 Y134.500 E17.63234
G1 X109.734 Y135.045 E17.75215
G1 X108.727 Y135.472 E17.85161
G1 X106.626 Y136.282 E18.05632
G1 X105.289 Y136.741 E18.18484
G1 X104.338 Y137.042 E18.27559
G1 X102.854 Y137.468 E18.41597
G1 X101.859 Y137.726 E18.50942
G1 X100.543 Y138.035 E18.63231
G1 X99.506 Y138.250 E18.72869
G1 X98.208 Y138.488 E18.84867
G1 X96.015 Y138.809 E19.05022
G1 X94.895 Y138.934 E19.15267
G1 X93.647 Y139.042 E19.26657
G1 X92.331 Y139.123 E19.38649
G1 X91.271 Y139.161 E19.48293
G1 X90.080 Y139.178 E19.59122
G1 X88.892 Y139.165 E19.69927
G1 X87.669 Y139.123 E19.81049
G1 X86.353 Y139.042 E19.93041
G1 X85.105 Y138.934 E20.04431
G1 X83.985 Y138.809 E20.14676
G1 X81.792 Y138.488 E20.34831
G1 X80.494 Y138.250 E20.46829
G1 X79.457 Y138.035 E20.56466
G1 X78.141 Y137.726 E20.68756
G1 X77.146 Y137.468 E20.78101
G1 X75.662 Y137.042 E20.92138
G1 X74.710 Y136.741 E21.01215
G1 X73.374 Y136.282 E21.14066
G1 X71.273 Y135.472 E21.34536
G1 X70.266 Y135.045 E21.44483
G1 X69.066 Y134.500 E21.56464
G1 X68.111 Y134.038 E21.66118
G1 X66.148 Y133.007 E21.86274
G1 X64.810 Y132.236 E22.00317
G1 X64.096 Y131.803 E22.07910
G1 X62.105 Y130.501 E22.29542
G1 X60.666 Y129.472 E22.45625
G1 X58.891 Y128.088 E22.66095
G1 X58.199 Y127.511 E22.74289
G1 X56.540 Y126.041 E22.94445
G1 X55.112 Y124.658 E23.12517
G1 X53.672 Y123.145 E23.31509
G1 X52.089 Y121.323 E23.53457
G1 X50.598 Y119.425 E23.75405
G1 X49.202 Y117.456 E23.97353
G1 X47.904 Y115.421 E24.19300
G1 X47.470 Y114.671 E24.27177
G1 X46.554 Y113.038 E24.44204
G1 X45.476 Y110.879 E24.66152
G1 X44.629 Y108.969 E24.85144
G1 X43.753 Y106.720 E25.07092
G1 X42.988 Y104.431 E25.29039
G1 X42.337 Y102.107 E25.50987
G1 X41.737 Y99.434 E25.75891
G1 X41.332 Y97.055 E25.97838
G1 X41.045 Y94.658 E26.19786
G1 X40.891 Y92.575 E26.38778
G1 X40.824 Y90.163 E26.60726
G1 X40.873 Y87.784 E26.82359
G1 X41.038 Y85.413 E27.03969
G1 X41.316 Y83.053 E27.25579
G1 X41.452 Y82.211 E27.33335
G1 X41.770 Y80.395 E27.50100
G1 X42.291 Y78.076 E27.71710
G1 X42.923 Y75.785 E27.93320
G1 X43.558 Y73.829 E28.12020
G1 X44.394 Y71.604 E28.33630
G1 X45.336 Y69.422 E28.55241
G1 X46.531 Y67.005 E28.79761
G1 X47.693 Y64.932 E29.01371
G1 X48.953 Y62.917 E29.22981
G1 X50.310 Y60.965 E29.44591
G1 X51.759 Y59.082 E29.66202
G1 X53.297 Y57.270 E29.87812
G1 X54.879 Y55.578 E30.08877
G1 E28.08877 F2400.00000
G92 E0
G1 X98.475 Y104.475 F7800.000
G1 E2.00000 F2400.00000
G1 X81.525 Y104.475 E3.54124 F1800.000
G1 X81.525 Y94.525 E4.44597
G1 X98.475 Y94.525 E5.98720
G1 X98.475 Y104.415 E6.88647
G1 X97.850 Y103.850 F7800.000
G1 X82.150 Y103.850 E8.31407 F1800.000
G1 X82.150 Y95.150 E9.10516
G1 X97.850 Y95.150 E10.53275
G1 X97.850 Y103.790 E11.31838
G1 X97.850 Y104.250 F7800.000
G1 X110.491 Y126.164 F7800.000
G1 X109.600 Y126.669 E11.41150 F1800.000
G1 X107.777 Y127.586 E11.59706
G1 X105.911 Y128.413 E11.78263
G1 X104.007 Y129.148 E11.96819
G1 X102.070 Y129.788 E12.15376
G1 X100.098 Y130.334 E12.33979
G1 X98.970 Y130.599 E12.44511
G1 X96.999 Y130.985 E12.62779
G1 X95.011 Y131.275 E12.81047
G1 X94.076 Y131.378 E12.89597
G1 X93.011 Y131.469 E12.99316
G1 X92.041 Y131.528 E13.08159
G1 X91.010 Y131.566 E13.17532
G1 X88.995 Y131.566 E13.35855
G1 X86.988 Y131.469 E13.54126
G1 X84.988 Y131.275 E13.72397
G1 X83.000 Y130.985 E13.90669
G1 X81.028 Y130.599 E14.08940
G1 X79.077 Y130.118 E14.27211
G1 X77.152 Y129.543 E14.45482
G1 X75.256 Y128.876 E14.63753
G1 X73.395 Y128.119 E14.82024
G1 X71.573 Y127.272 E15.00295
G1 X69.794 Y126.338 E15.18567
G1 X68.062 Y125.319 E15.36838
G1 X66.381 Y124.218 E15.55109
G1 X64.755 Y123.037 E15.73380
G1 X63.189 Y121.779 E15.91651
G1 X61.682 Y120.445 E16.09949
G1 X60.602 Y119.403 E16.23598
G1 X59.193 Y117.922 E16.42183
G1 X57.860 Y116.377 E16.60740
G1 X56.604 Y114.768 E16.79296
G1 X55.429 Y113.100 E16.97853
G1 X54.337 Y111.376 E17.16409
G1 X53.331 Y109.600 E17.34966
G1 X52.414 Y107.777 E17.53522
G1 X51.587 Y105.911 E17.72079
G1 X50.852 Y104.007 E17.90636
G1 X50.212 Y102.070 E18.09192
G1 X49.668 Y100.103 E18.27749
G1 X49.221 Y98.112 E18.46305
G1 X48.872 Y96.101 E18.64862
G1 X48.622 Y94.075 E18.83419
G1 X48.472 Y92.040 E19.01975
G1 X48.422 Y90.000 E19.20533
G1 X48.470 Y87.991 E19.38803
G1 X48.616 Y85.987 E19.57074
G1 X48.858 Y83.992 E19.75345
G1 X49.196 Y82.012 E19.93616
G1 X49.630 Y80.050 E20.11888
G1 X50.158 Y78.111 E20.30159
G1 X50.779 Y76.200 E20.48430
G1 X51.491 Y74.321 E20.66701
G1 X52.294 Y72.479 E20.84972
G1 X53.184 Y70.678 E21.03243
G1 X54.161 Y68.921 E21.21515
G1 X55.221 Y67.215 E21.39786
G1 X56.362 Y65.561 E21.58057
G1 X57.582 Y63.964 E21.76328
G1 X58.878 Y62.428 E21.94599
G1 X60.247 Y60.957 E22.12870
G1 X61.691 Y59.547 E22.31220
G1 X62.071 Y59.198 E22.35915
G1 X63.623 Y57.860 E22.54552
G1 X65.232 Y56.604 E22.73108
G1 X66.900 Y55.429 E22.91665
G1 X68.624 Y54.337 E23.10222
G1 X70.400 Y53.331 E23.28778
G1 X72.223 Y52.414 E23.47335
G1 X74.089 Y51.587 E23.65891
G1 X75.993 Y50.852 E23.84448
G1 X77.930 Y50.212 E24.03004
G1 X79.902 Y49.666 E24.21608
G1 X81.887 Y49.221 E24.40104
G1 X83.898 Y48.872 E24.58664
G1 X84.989 Y48.725 E24.68676
G1 X86.989 Y48.531 E24.86943
G1 X88.990 Y48.434 E25.05166
G1 X90.747 Y48.431 E25.21140
G1 X92.043 Y48.472 E25.32928
G1 X93.011 Y48.531 E25.41748 F1800.000
G1 X95.011 Y48.725 E25.60016
G1 X96.999 Y49.015 E25.78284
G1 X98.970 Y49.401 E25.96552
G1 X100.098 Y49.666 E26.07084
G1 X102.070 Y50.212 E26.25687
G1 X104.007 Y50.852 E26.44244
G1 X105.911 Y51.587 E26.62800
G1 X107.777 Y52.414 E26.81357
G1 X109.600 Y53.331 E26.99914
G1 X111.376 Y54.337 E27.18470
G1 X113.100 Y55.429 E27.37027
G1 X114.768 Y56.604 E27.55583
G1 X116.377 Y57.860 E27.74140
G1 X117.922 Y59.193 E27.92696
G1 X119.400 Y60.600 E28.11253
G1 X120.807 Y62.078 E28.29810
G1 X122.140 Y63.623 E28.48366
G1 X123.396 Y65.232 E28.66923
G1 X124.571 Y66.900 E28.85479
G1 X125.663 Y68.624 E29.04036
G1 X126.669 Y70.400 E29.22593
G1 X127.586 Y72.223 E29.41149
G1 X128.413 Y74.089 E29.59706
G1 X129.148 Y75.993 E29.78262
G1 X129.788 Y77.930 E29.96819
G1 X130.332 Y79.897 E30.15376
G1 X130.779 Y81.888 E30.33932
G1 X131.128 Y83.899 E30.52489
G1 X131.378 Y85.925 E30.71045
G1 X131.528 Y87.960 E30.89602
G1 X131.578 Y90.000 E31.08160
G1 X131.530 Y92.009 E31.26430
G1 X131.384 Y94.013 E31.44701
G1 X131.142 Y96.008 E31.62972
G1 X130.804 Y97.988 E31.81243
G1 X130.370 Y99.950 E31.99514
G1 X129.842 Y101.889 E32.17785
G1 X129.221 Y103.800 E32.36056
G1 X128.509 Y105.679 E32.54328
G1 X127.706 Y107.521 E32.72599
G1 X126.816 Y109.322 E32.90870
G1 X125.839 Y111.079 E33.09141
G1 X124.779 Y112.785 E33.27412
G1 X123.638 Y114.439 E33.45683
G1 X122.418 Y116.036 E33.63955
G1 X121.122 Y117.572 E33.82226
G1 X119.753 Y119.043 E34.00497
G1 X119.392 Y119.396 E34.05092
G1 X117.921 Y120.809 E34.23640
G1 X116.377 Y122.140 E34.42177
G1 X114.768 Y123.396 E34.60733
G1 X113.100 Y124.571 E34.79290
G1 X111.376 Y125.663 E34.97846
G1 X110.543 Y126.134 E35.06546
G1 X110.799 Y126.708 F7800.000
G1 X109.895 Y127.220 E35.15997 F1800.000
G1 X108.044 Y128.151 E35.34833
G1 X106.151 Y128.991 E35.53668
G1 X104.218 Y129.736 E35.72504
G1 X102.251 Y130.386 E35.91339
G1 X100.253 Y130.939 E36.10192
G1 X99.106 Y131.209 E36.20903
G1 X97.105 Y131.601 E36.39447
G1 X95.087 Y131.896 E36.57992
G1 X94.137 Y132.000 E36.66681
G1 X93.057 Y132.093 E36.76538
G1 X92.071 Y132.153 E36.85519
G1 X91.022 Y132.191 E36.95065
G1 X88.980 Y132.191 E37.13629
G1 X86.943 Y132.093 E37.32175
G1 X84.913 Y131.896 E37.50721
G1 X82.895 Y131.601 E37.69267
G1 X80.893 Y131.209 E37.87813
G1 X78.913 Y130.721 E38.06358
G1 X76.958 Y130.138 E38.24904
G1 X75.034 Y129.461 E38.43450
G1 X73.145 Y128.692 E38.61996
G1 X71.296 Y127.832 E38.80542
G1 X69.490 Y126.884 E38.99088
G1 X67.732 Y125.850 E39.17634
G1 X66.026 Y124.733 E39.36179
G1 X64.376 Y123.534 E39.54725
G1 X62.785 Y122.257 E39.73271
G1 X61.258 Y120.904 E39.91827
G1 X60.158 Y119.843 E40.05717
G1 X58.729 Y118.342 E40.24562
G1 X57.376 Y116.774 E40.43398
G1 X56.102 Y115.141 E40.62234
G1 X54.909 Y113.447 E40.81069
G1 X53.801 Y111.697 E40.99905
G1 X52.780 Y109.895 E41.18740
G1 X51.849 Y108.044 E41.37576
G1 X51.009 Y106.151 E41.56411
G1 X50.264 Y104.218 E41.75247
G1 X49.614 Y102.251 E41.94082
G1 X49.061 Y100.255 E42.12918
G1 X48.608 Y98.233 E42.31754
G1 X48.253 Y96.193 E42.50589
G1 X48.000 Y94.137 E42.69425
G1 X47.847 Y92.071 E42.88260
G1 X47.797 Y90.000 E43.07096
G1 X47.846 Y87.961 E43.25642
G1 X47.994 Y85.927 E43.44187
G1 X48.239 Y83.902 E43.62733
G1 X48.583 Y81.892 E43.81279
G1 X49.023 Y79.900 E43.99825
G1 X49.559 Y77.932 E44.18371
G1 X50.189 Y75.992 E44.36917
G1 X50.912 Y74.085 E44.55463
G1 X51.727 Y72.215 E44.74008
G1 X52.631 Y70.387 E44.92554
G1 X53.622 Y68.605 E45.11100
G1 X54.698 Y66.872 E45.29646
G1 X55.857 Y65.193 E45.48192
G1 X57.095 Y63.573 E45.66738
G1 X58.410 Y62.014 E45.85283
G1 X59.799 Y60.520 E46.03829
G1 X61.261 Y59.094 E46.22403
G1 X61.656 Y58.731 E46.27273
G1 X63.226 Y57.376 E46.46137
G1 X64.859 Y56.102 E46.64973
G1 X66.553 Y54.909 E46.83808
G1 X68.303 Y53.801 E47.02644
G1 X70.105 Y52.780 E47.21480
G1 X71.956 Y51.849 E47.40315
G1 X73.849 Y51.009 E47.59151
G1 X75.782 Y50.264 E47.77986
G1 X77.749 Y49.614 E47.96822
G1 X79.747 Y49.061 E48.15674
G1 X81.766 Y48.608 E48.34488
G1 X82.895 Y48.399 E48.44930
G1 X83.807 Y48.253 E48.53326
G1 X84.913 Y48.104 E48.63476
G1 X86.943 Y47.907 E48.82021
G1 X88.978 Y47.809 E49.00549
G1 X90.757 Y47.806 E49.16717
G1 X92.072 Y47.847 E49.28683
G1 X93.057 Y47.907 E49.37656 F1800.000
G1 X95.087 Y48.104 E49.56200
G1 X97.105 Y48.399 E49.74745
G1 X99.106 Y48.791 E49.93290
G1 X100.253 Y49.061 E50.04001
G1 X102.251 Y49.614 E50.22853
G1 X104.218 Y50.264 E50.41689
G1 X106.151 Y51.009 E50.60524
G1 X108.044 Y51.849 E50.79360
G1 X109.895 Y52.780 E50.98195
G1 X111.697 Y53.801 E51.17031
G1 X113.447 Y54.909 E51.35866
G1 X115.141 Y56.102 E51.54702
G1 X116.774 Y57.376 E51.73538
G1 X118.342 Y58.729 E51.92373
G1 X119.842 Y60.158 E52.11209
G1 X121.271 Y61.658 E52.30044
G1 X122.624 Y63.226 E52.48880
G1 X123.898 Y64.859 E52.67715
G1 X125.091 Y66.553 E52.86551
G1 X126.199 Y68.303 E53.05386
G1 X127.220 Y70.105 E53.24222
G1 X128.151 Y71.956 E53.43058
G1 X128.991 Y73.849 E53.61893
G1 X129.736 Y75.782 E53.80729
G1 X130.386 Y77.749 E53.99564
G1 X130.939 Y79.745 E54.18400
G1 X131.392 Y81.767 E54.37235
G1 X131.747 Y83.807 E54.56071
G1 X132.000 Y85.863 E54.74907
G1 X132.153 Y87.929 E54.93742
G1 X132.203 Y90.000 E55.12578
G1 X132.154 Y92.039 E55.31123
G1 X132.006 Y94.073 E55.49669
G1 X131.760 Y96.098 E55.68215
G1 X131.417 Y98.108 E55.86761
G1 X130.977 Y100.100 E56.05307
G1 X130.441 Y102.068 E56.23853
G1 X129.811 Y104.008 E56.42399
G1 X129.088 Y105.915 E56.60944
G1 X128.273 Y107.785 E56.79490
G1 X127.369 Y109.613 E56.98036
G1 X126.378 Y111.395 E57.16582
G1 X125.302 Y113.128 E57.35128
G1 X124.143 Y114.807 E57.53674
G1 X122.905 Y116.427 E57.72219
G1 X121.590 Y117.986 E57.90765
G1 X120.201 Y119.480 E58.09311
G1 X119.826 Y119.845 E58.14066
G1 X118.341 Y121.271 E58.32789
G1 X116.774 Y122.624 E58.51617
G1 X115.141 Y123.898 E58.70453
G1 X113.447 Y125.091 E58.89289
G1 X111.697 Y126.199 E59.08124
G1 X110.851 Y126.678 E59.16963
G1 X110.454 Y126.505 F7800.000
G1 X103.647 Y128.905 F7800.000
G1 X51.092 Y76.350 E65.94717 F1800.000
G1 X50.874 Y77.019 E66.01131
G1 X102.981 Y129.125 E72.73096
G1 X102.314 Y129.345 E72.79494
G1 X50.657 Y77.688 E79.45671
G1 X50.449 Y78.366 E79.52142
G1 X101.631 Y129.548 E86.12187
G1 X100.937 Y129.740 E86.18755
G1 X50.260 Y79.063 E92.72295
G1 X50.070 Y79.759 E92.78878
G1 X100.243 Y129.932 E99.25912
G1 X99.525 Y130.101 E99.32636
G1 X49.898 Y80.474 E105.72632
G1 X49.737 Y81.199 E105.79411
G1 X98.801 Y130.263 E112.12142
G1 X98.075 Y130.423 E112.18926
G1 X49.577 Y81.925 E118.44354
G1 X49.446 Y82.680 E118.51340
G1 X97.319 Y130.554 E124.68726
G1 X96.564 Y130.685 E124.75715
G1 X49.316 Y83.437 E130.85029
G1 X49.198 Y84.205 E130.92118
G1 X95.793 Y130.800 E136.93010
G1 X95.004 Y130.898 E137.00259
G1 X49.102 Y84.996 E142.92215
G1 X49.006 Y85.786 E142.99474
G1 X94.215 Y130.995 E148.82493
G1 X93.401 Y131.067 E148.89948
G1 X48.941 Y86.607 E154.63309
G1 X48.881 Y87.433 E154.70863
G1 X92.573 Y131.125 E160.34312
G1 X91.728 Y131.166 E160.42027
G1 X48.839 Y88.277 E165.95124
G1 X48.818 Y89.142 E166.03017
G1 X90.863 Y131.188 E171.45235
G1 X89.977 Y131.188 E171.53317
G1 X48.804 Y90.015 E176.84285
G1 X48.826 Y90.923 E176.92572
G1 X89.088 Y131.185 E182.11791
G1 X88.157 Y131.140 E182.20294
G1 X48.849 Y91.832 E187.27215
G1 X48.917 Y92.786 E187.35937
G1 X87.226 Y131.095 E192.29973
G1 X86.248 Y131.003 E192.38928
G1 X48.987 Y93.743 E197.19444
G1 X49.103 Y94.745 E197.28646
G1 X85.266 Y130.908 E201.95007
G1 X84.233 Y130.762 E202.04521
G1 X49.228 Y95.756 E206.55953
G1 X49.406 Y96.820 E206.65790
G1 X83.194 Y130.609 E211.01527
