; generated by Slic3r 1.2.9 on 2016-05-12 at 18:14:06

; external perimeters extrusion width = 0.40mm
; perimeters extrusion width = 0.48mm
; infill extrusion width = 0.48mm
; solid infill extrusion width = 0.48mm
; top infill extrusion width = 0.48mm

M107
M190 S60 ; set bed temperature
M104 S220 ; set temperature
G28 ; home all axes
G1 Z5 F5000 ; lift nozzle

M109 S220 ; wait for temperature to be reached
G21 ; set units to millimeters
G90 ; use absolute coordinates
M82 ; use absolute distances for extrusion
G92 E0
G1 Z0.350 F7800.000
G1 E-2.00000 F2400.00000
G92 E0
G1 X55.767 Y55.789 F7800.000
G1 E2.00000 F2400.00000
G1 X56.981 Y54.612 E2.15373 F1800.000
G1 X57.910 Y53.768 E2.26783
G1 X58.733 Y53.055 E2.36690
G1 X59.752 Y52.216 E2.48683
G1 X60.690 Y51.484 E2.59508
G1 X61.798 Y50.665 E2.72038
G1 X62.589 Y50.110 E2.80825
G1 X63.656 Y49.398 E2.92481
G1 X64.553 Y48.830 E3.02142
G1 X65.846 Y48.057 E3.15836
G1 X66.576 Y47.646 E3.23458
G1 X67.962 Y46.908 E3.37736
G1 X70.133 Y45.865 E3.59634
G1 X72.204 Y44.991 E3.80076
G1 X74.742 Y44.069 E4.04630
G1 X77.051 Y43.366 E4.26573
G1 X79.391 Y42.778 E4.48516
G1 X81.758 Y42.308 E4.70460
G1 X84.146 Y41.957 E4.92403
G1 X86.548 Y41.725 E5.14346
G1 X88.956 Y41.612 E5.36267
G1 X91.330 Y41.619 E5.57849
G1 X93.665 Y41.740 E5.79118 F1800.000
G1 X95.675 Y41.935 E5.97476
G1 X97.990 Y42.265 E6.18744
G1 X100.287 Y42.707 E6.40013
G1 X102.869 Y43.343 E6.64191
G1 X105.108 Y44.020 E6.85459
G1 X107.312 Y44.803 E7.06728
G1 X109.369 Y45.644 E7.26934
G1 X111.494 Y46.634 E7.48249
G1 X113.568 Y47.726 E7.69564
G1 X115.447 Y48.830 E7.89378
G1 X116.344 Y49.398 E7.99038
G1 X117.411 Y50.110 E8.10695
G1 X118.331 Y50.759 E8.20937
G1 X119.310 Y51.484 E8.32012
G1 X120.123 Y52.116 E8.41381
G1 X121.140 Y52.948 E8.53328
G1 X121.970 Y53.662 E8.63281
G1 X123.019 Y54.612 E8.76146
G1 X123.853 Y55.409 E8.86636
G1 X124.693 Y56.252 E8.97462
G1 X125.532 Y57.135 E9.08535
G1 X126.287 Y57.972 E9.18780
G1 X127.122 Y58.944 E9.30435
G1 X127.795 Y59.766 E9.40096
G1 X129.118 Y61.498 E9.59911
G1 X129.934 Y62.654 E9.72777
G1 X130.452 Y63.425 E9.81227
G1 X131.245 Y64.674 E9.94676
G1 X131.691 Y65.415 E10.02543
G1 X132.530 Y66.897 E10.18031
G1 X133.557 Y68.897 E10.38474
G1 X133.943 Y69.713 E10.46677
G1 X134.662 Y71.353 E10.62960
G1 X135.536 Y73.602 E10.84903
G1 X136.200 Y75.576 E11.03844
G1 X136.861 Y77.897 E11.25788
G1 X137.406 Y80.248 E11.47731
G1 X137.833 Y82.623 E11.69674
G1 X138.174 Y85.345 E11.94620
G1 X138.347 Y87.753 E12.16564
G1 X138.399 Y90.160 E12.38460
G1 X138.350 Y92.178 E12.56818
G1 X138.188 Y94.512 E12.78087
G1 X137.914 Y96.835 E12.99356
G1 X137.528 Y99.142 E13.20624
G1 X137.030 Y101.427 E13.41892
G1 X136.709 Y102.639 E13.53290
G1 X136.332 Y103.993 E13.66071
G1 X135.602 Y106.215 E13.87340
G1 X134.765 Y108.399 E14.08608
G1 X133.874 Y110.437 E14.28838
G1 X132.833 Y112.538 E14.50152
G1 X131.774 Y114.442 E14.69966
G1 X131.245 Y115.326 E14.79335
G1 X130.542 Y116.436 E14.91283
G1 X129.934 Y117.346 E15.01234
G1 X129.214 Y118.368 E15.12599
G1 X128.621 Y119.172 E15.21677
G1 X127.795 Y120.234 E15.33916
G1 X127.122 Y121.056 E15.43577
G1 X126.177 Y122.152 E15.56735
G1 X125.423 Y122.982 E15.66932
G1 X124.578 Y123.866 E15.78050
G1 X123.019 Y125.388 E15.97864
G1 X122.090 Y126.232 E16.09274
G1 X121.267 Y126.945 E16.19181
G1 X120.248 Y127.784 E16.31174
G1 X119.441 Y128.416 E16.40498
G1 X118.202 Y129.335 E16.54527
G1 X117.411 Y129.890 E16.63316
G1 X116.210 Y130.689 E16.76429
G1 X114.292 Y131.862 E16.96871
G1 X113.424 Y132.354 E17.05948
G1 X112.180 Y133.018 E17.18770
G1 X111.345 Y133.438 E17.27264
G1 X109.369 Y134.356 E17.47079
G1 X107.796 Y135.009 E17.62567
G1 X105.571 Y135.826 E17.84118
G1 X103.267 Y136.545 E18.06062
G1 X100.609 Y137.222 E18.31007
G1 X98.242 Y137.692 E18.52951
G1 X95.854 Y138.043 E18.74894
G1 X93.782 Y138.251 E18.93835
G1 X91.372 Y138.379 E19.15778
G1 X88.670 Y138.381 E19.40340
G1 X86.335 Y138.260 E19.61609
G1 X84.007 Y138.026 E19.82877
G1 X82.010 Y137.735 E20.01235
G1 X79.713 Y137.293 E20.22503
G1 X77.440 Y136.741 E20.43772
G1 X75.196 Y136.079 E20.65040
G1 X72.987 Y135.310 E20.86309
G1 X70.818 Y134.435 E21.07578
G1 X69.987 Y134.068 E21.15835
G1 X68.655 Y133.438 E21.29240
G1 X67.820 Y133.018 E21.37734
G1 X65.846 Y131.943 E21.58177
G1 X64.412 Y131.084 E21.73373
G1 X63.656 Y130.602 E21.81531
G1 X62.453 Y129.796 E21.94690
G1 X60.690 Y128.516 E22.14503
G1 X59.877 Y127.884 E22.23874
G1 X58.860 Y127.052 E22.35820
G1 X57.910 Y126.232 E22.47229
G1 X57.102 Y125.501 E22.57137
G1 X56.262 Y124.703 E22.67673
G1 X55.422 Y123.866 E22.78453
G1 X54.577 Y122.982 E22.89572
G1 X53.713 Y122.029 E23.01272
G1 X52.878 Y121.056 E23.12927
G1 X52.205 Y120.234 E23.22589
G1 X50.882 Y118.502 E23.42402
G1 X50.066 Y117.346 E23.55269
G1 X49.548 Y116.575 E23.63719
G1 X48.755 Y115.326 E23.77169
G1 X48.309 Y114.585 E23.85036
G1 X47.470 Y113.103 E24.00523
G1 X47.091 Y112.391 E24.07854
G1 X46.373 Y110.959 E24.22423
G1 X45.447 Y108.910 E24.42865
G1 X44.577 Y106.708 E24.64393
G1 X43.800 Y104.423 E24.86336
G1 X43.057 Y101.783 E25.11282
G1 X42.528 Y99.428 E25.33226
G1 X42.167 Y97.377 E25.52166
G1 X41.859 Y94.983 E25.74110
G1 X41.670 Y92.577 E25.96053
G1 X41.601 Y89.840 E26.20953
G1 X41.666 Y87.502 E26.42221
G1 X41.843 Y85.170 E26.63489
G1 X42.086 Y83.165 E26.81847
G1 X42.472 Y80.858 E27.03116
G1 X42.970 Y78.573 E27.24384
G1 X43.577 Y76.314 E27.45652
G1 X44.292 Y74.087 E27.66921
G1 X45.114 Y71.897 E27.88189
G1 X46.041 Y69.750 E28.09457
G1 X46.373 Y69.041 E28.16575
G1 X47.167 Y67.462 E28.32645
G1 X48.309 Y65.415 E28.53961
G1 X48.755 Y64.674 E28.61827
G1 X49.548 Y63.425 E28.75277
G1 X50.786 Y61.632 E28.95091
G1 X51.476 Y60.701 E29.05625
G1 X52.205 Y59.766 E29.16407
G1 X52.981 Y58.821 E29.27524
G1 X53.713 Y57.972 E29.37724
G1 X54.468 Y57.135 E29.47968
G1 X55.725 Y55.831 E29.64437
G1 E27.64437 F2400.00000
G92 E0
G1 X96.225 Y94.225 F7800.000
G1 E2.00000 F2400.00000
G1 X83.775 Y94.225 E3.13205 F1800.000
G1 X83.775 Y85.775 E3.90039
G1 X96.225 Y85.775 E5.03244
G1 X96.225 Y94.165 E5.79532
G1 X95.600 Y93.600 F7800.000
G1 X84.400 Y93.600 E6.81373 F1800.000
G1 X84.400 Y86.400 E7.46842
G1 X95.600 Y86.400 E8.48684
G1 X95.600 Y93.540 E9.13607
G1 X95.600 Y94.000 F7800.000
G1 X124.270 Y112.117 F7800.000
G1 X123.711 Y112.984 E9.22984 F1800.000
G1 X122.520 Y114.640 E9.41530
G1 X121.256 Y116.225 E9.59969
G1 X120.539 Y117.057 E9.69951
G1 X119.909 Y117.751 E9.78476
G1 X119.197 Y118.500 E9.87875
G1 X117.786 Y119.877 E10.05798
G1 X116.311 Y121.184 E10.23720
G1 X115.437 Y121.900 E10.33993
G1 X113.821 Y123.125 E10.52431
G1 X112.136 Y124.273 E10.70975
G1 X110.400 Y125.334 E10.89473
G1 X108.614 Y126.307 E11.07972
G1 X106.781 Y127.190 E11.26470
G1 X104.906 Y127.980 E11.44969
G1 X102.994 Y128.676 E11.63467
G1 X101.050 Y129.275 E11.81966
G1 X99.079 Y129.777 E12.00464
G1 X97.085 Y130.181 E12.18962
G1 X95.073 Y130.484 E12.37461
G1 X93.049 Y130.686 E12.55959
G1 X91.017 Y130.788 E12.74459
G1 X89.014 Y130.789 E12.92673
G1 X87.045 Y130.693 E13.10601
G1 X85.082 Y130.503 E13.28530
G1 X83.131 Y130.218 E13.46459
G1 X81.196 Y129.839 E13.64389
G1 X79.281 Y129.367 E13.82318
G1 X77.392 Y128.804 E14.00247
G1 X75.532 Y128.149 E14.18177
G1 X73.706 Y127.406 E14.36106
G1 X71.918 Y126.575 E14.54035
G1 X70.172 Y125.658 E14.71965
G1 X68.472 Y124.659 E14.89894
G1 X66.823 Y123.578 E15.07823
G1 X65.228 Y122.419 E15.25753
G1 X63.690 Y121.184 E15.43682
G1 X62.214 Y119.877 E15.61611
G1 X60.803 Y118.500 E15.79541
G1 X59.460 Y117.056 E15.97470
G1 X58.189 Y115.549 E16.15399
G1 X56.992 Y113.982 E16.33329
G1 X55.872 Y112.359 E16.51258
G1 X54.831 Y110.684 E16.69187
G1 X53.873 Y108.961 E16.87117
G1 X52.998 Y107.191 E17.05073
G1 X52.405 Y105.851 E17.18392
G1 X51.660 Y103.955 E17.36921
G1 X51.012 Y102.026 E17.55419
G1 X50.461 Y100.068 E17.73918
G1 X50.009 Y98.084 E17.92416
G1 X49.655 Y96.081 E18.10914
G1 X49.402 Y94.062 E18.29413
G1 X49.250 Y92.034 E18.47911
G1 X49.200 Y90.000 E18.66413
G1 X49.247 Y88.029 E18.84339
G1 X49.390 Y86.062 E19.02268
G1 X49.628 Y84.105 E19.20198
G1 X49.960 Y82.161 E19.38127
G1 X50.385 Y80.236 E19.56056
G1 X50.903 Y78.333 E19.73986
G1 X51.512 Y76.458 E19.91915
G1 X52.212 Y74.614 E20.09844
G1 X53.002 Y72.799 E20.27850
G1 X53.236 Y72.305 E20.32817
G1 X54.168 Y70.487 E20.51395
G1 X55.185 Y68.725 E20.69894
G1 X56.289 Y67.016 E20.88392
G1 X57.480 Y65.360 E21.06938
G1 X58.190 Y64.450 E21.17436
G1 X59.461 Y62.943 E21.35359
G1 X60.091 Y62.249 E21.43884
G1 X60.803 Y61.500 E21.53283
G1 X62.214 Y60.123 E21.71206
G1 X63.689 Y58.816 E21.89128
G1 X64.563 Y58.100 E21.99401
G1 X66.179 Y56.875 E22.17839
G1 X67.864 Y55.727 E22.36383
G1 X69.600 Y54.666 E22.54881
G1 X71.386 Y53.693 E22.73380
G1 X73.219 Y52.810 E22.91878
G1 X75.094 Y52.020 E23.10377
G1 X77.006 Y51.324 E23.28875
G1 X78.950 Y50.725 E23.47373
G1 X80.921 Y50.223 E23.65872
G1 X82.915 Y49.819 E23.84370
G1 X84.927 Y49.516 E24.02869
G1 X86.951 Y49.314 E24.21367
G1 X88.983 Y49.212 E24.39867
G1 X90.986 Y49.211 E24.58081
G1 X92.047 Y49.263 E24.67735
G1 X92.955 Y49.307 E24.76009 F1800.000
G1 X94.918 Y49.497 E24.93938
G1 X96.869 Y49.782 E25.11867
G1 X98.804 Y50.161 E25.29797
G1 X100.719 Y50.633 E25.47726
G1 X102.608 Y51.196 E25.65655
G1 X104.468 Y51.851 E25.83585
G1 X106.294 Y52.594 E26.01514
G1 X108.082 Y53.425 E26.19443
G1 X109.828 Y54.342 E26.37373
G1 X111.528 Y55.341 E26.55302
G1 X113.177 Y56.422 E26.73231
G1 X114.772 Y57.581 E26.91161
G1 X116.310 Y58.816 E27.09090
G1 X117.786 Y60.123 E27.27019
G1 X119.197 Y61.500 E27.44949
G1 X120.540 Y62.944 E27.62878
G1 X121.811 Y64.451 E27.80807
G1 X123.008 Y66.018 E27.98737
G1 X124.128 Y67.641 E28.16666
G1 X125.169 Y69.316 E28.34595
G1 X126.127 Y71.039 E28.52525
G1 X127.002 Y72.809 E28.70481
G1 X127.595 Y74.149 E28.83800
G1 X128.340 Y76.045 E29.02329
G1 X128.988 Y77.974 E29.20827
G1 X129.539 Y79.932 E29.39326
G1 X129.991 Y81.916 E29.57824
G1 X130.345 Y83.919 E29.76322
G1 X130.598 Y85.938 E29.94821
G1 X130.750 Y87.966 E30.13319
G1 X130.800 Y90.000 E30.31821
G1 X130.753 Y91.971 E30.49747
G1 X130.610 Y93.938 E30.67676
G1 X130.372 Y95.895 E30.85606
G1 X130.040 Y97.839 E31.03535
G1 X129.615 Y99.764 E31.21464
G1 X129.097 Y101.667 E31.39394
G1 X128.488 Y103.542 E31.57323
G1 X127.788 Y105.386 E31.75252
G1 X126.998 Y107.201 E31.93258
G1 X126.764 Y107.695 E31.98225
G1 X125.832 Y109.513 E32.16803
G1 X124.815 Y111.275 E32.35302
G1 X124.303 Y112.067 E32.43877
G1 X124.795 Y112.456 F7800.000
G1 X124.227 Y113.336 E32.53396 F1800.000
G1 X123.021 Y115.014 E32.72195
G1 X122.298 Y115.941 E32.82875
G1 X121.734 Y116.627 E32.90957
G1 X121.007 Y117.470 E33.01078
G1 X120.367 Y118.176 E33.09743
G1 X119.644 Y118.936 E33.19281
G1 X118.212 Y120.335 E33.37483
G1 X116.713 Y121.662 E33.55684
G1 X115.828 Y122.388 E33.66097
G1 X114.183 Y123.634 E33.84857
G1 X112.475 Y124.798 E34.03655
G1 X110.713 Y125.876 E34.22437
G1 X108.899 Y126.863 E34.41219
G1 X107.038 Y127.760 E34.60001
G1 X105.134 Y128.562 E34.78782
G1 X103.193 Y129.268 E34.97564
G1 X101.220 Y129.877 E35.16346
G1 X99.218 Y130.387 E35.35128
G1 X97.193 Y130.796 E35.53910
G1 X95.151 Y131.104 E35.72691
G1 X93.096 Y131.310 E35.91473
G1 X91.033 Y131.413 E36.10256
G1 X88.999 Y131.413 E36.28749
G1 X86.999 Y131.317 E36.46952
G1 X85.007 Y131.123 E36.65156
G1 X83.026 Y130.834 E36.83360
G1 X81.061 Y130.450 E37.01564
G1 X79.117 Y129.970 E37.19768
G1 X77.199 Y129.398 E37.37972
G1 X75.310 Y128.734 E37.56176
G1 X73.456 Y127.979 E37.74380
G1 X71.641 Y127.135 E37.92584
G1 X69.868 Y126.205 E38.10788
G1 X68.142 Y125.190 E38.28992
G1 X66.468 Y124.093 E38.47196
G1 X64.848 Y122.916 E38.65400
G1 X63.287 Y121.662 E38.83604
G1 X61.789 Y120.335 E39.01808
G1 X60.356 Y118.936 E39.20012
G1 X58.993 Y117.470 E39.38216
G1 X57.702 Y115.940 E39.56420
G1 X56.486 Y114.349 E39.74624
G1 X55.349 Y112.702 E39.92828
G1 X54.292 Y111.001 E40.11032
G1 X53.320 Y109.251 E40.29236
G1 X52.432 Y107.456 E40.47450
G1 X51.828 Y106.092 E40.61011
G1 X51.073 Y104.168 E40.79804
G1 X50.415 Y102.210 E40.98585
G1 X49.855 Y100.222 E41.17367
G1 X49.396 Y98.208 E41.36149
G1 X49.037 Y96.174 E41.54931
G1 X48.780 Y94.125 E41.73713
G1 X48.626 Y92.065 E41.92494
G1 X48.575 Y90.000 E42.11277
G1 X48.623 Y87.999 E42.29480
G1 X48.768 Y86.002 E42.47684
G1 X49.009 Y84.014 E42.65888
G1 X49.346 Y82.041 E42.84092
G1 X49.778 Y80.086 E43.02296
G1 X50.304 Y78.155 E43.20500
G1 X50.923 Y76.251 E43.38704
G1 X51.633 Y74.379 E43.56908
G1 X52.433 Y72.540 E43.75140
G1 X52.675 Y72.029 E43.80285
G1 X53.619 Y70.188 E43.99096
G1 X54.652 Y68.399 E44.17877
G1 X55.773 Y66.664 E44.36659
G1 X56.979 Y64.986 E44.55458
G1 X57.702 Y64.059 E44.66139
G1 X58.993 Y62.530 E44.84340
G1 X59.633 Y61.824 E44.93004
G1 X60.356 Y61.064 E45.02543
G1 X61.788 Y59.665 E45.20745
G1 X63.287 Y58.338 E45.38946
G1 X64.172 Y57.612 E45.49359
G1 X65.817 Y56.366 E45.68119
G1 X67.525 Y55.202 E45.86917
G1 X69.287 Y54.124 E46.05699
G1 X71.101 Y53.137 E46.24481
G1 X72.962 Y52.240 E46.43263
G1 X74.866 Y51.438 E46.62044
G1 X76.807 Y50.732 E46.80826
G1 X78.780 Y50.123 E46.99608
G1 X80.782 Y49.613 E47.18390
G1 X82.807 Y49.204 E47.37172
G1 X84.849 Y48.896 E47.55953
G1 X86.904 Y48.690 E47.74735
G1 X88.967 Y48.587 E47.93518
G1 X91.001 Y48.587 E48.12011
G1 X92.077 Y48.639 E48.21803
G1 X93.001 Y48.683 E48.30214 F1800.000
G1 X94.993 Y48.877 E48.48418
G1 X96.974 Y49.166 E48.66622
G1 X98.939 Y49.550 E48.84826
G1 X100.883 Y50.030 E49.03030
G1 X102.801 Y50.602 E49.21234
G1 X104.690 Y51.266 E49.39438
G1 X106.544 Y52.021 E49.57642
G1 X108.359 Y52.865 E49.75846
G1 X110.132 Y53.795 E49.94050
G1 X111.858 Y54.810 E50.12254
G1 X113.532 Y55.907 E50.30458
G1 X115.152 Y57.084 E50.48662
G1 X116.713 Y58.338 E50.66866
G1 X118.211 Y59.665 E50.85070
G1 X119.644 Y61.064 E51.03274
G1 X121.007 Y62.530 E51.21478
G1 X122.298 Y64.060 E51.39682
G1 X123.514 Y65.651 E51.57886
G1 X124.651 Y67.298 E51.76090
G1 X125.708 Y68.999 E51.94294
G1 X126.680 Y70.749 E52.12498
G1 X127.568 Y72.544 E52.30712
G1 X128.172 Y73.908 E52.44273
G1 X128.927 Y75.832 E52.63065
G1 X129.585 Y77.790 E52.81847
G1 X130.145 Y79.778 E53.00629
G1 X130.604 Y81.792 E53.19411
G1 X130.963 Y83.826 E53.38193
G1 X131.220 Y85.875 E53.56974
G1 X131.374 Y87.935 E53.75756
G1 X131.425 Y90.000 E53.94539
G1 X131.377 Y92.001 E54.12742
G1 X131.232 Y93.998 E54.30946
G1 X130.991 Y95.986 E54.49150
G1 X130.654 Y97.959 E54.67354
G1 X130.222 Y99.914 E54.85558
G1 X129.696 Y101.845 E55.03762
G1 X129.077 Y103.749 E55.21966
G1 X128.367 Y105.621 E55.40170
G1 X127.567 Y107.460 E55.58402
G1 X127.325 Y107.971 E55.63547
G1 X126.381 Y109.812 E55.82358
G1 X125.348 Y111.601 E56.01139
G1 X124.828 Y112.406 E56.09857
G1 X124.396 Y112.437 F7800.000
G1 X123.084 Y113.297 F7800.000
G1 X96.603 Y86.816 E59.52709 F1800.000
G1 X96.603 Y87.706 E59.60855
G1 X122.712 Y113.814 E62.98889
G1 X122.340 Y114.332 E63.04726
G1 X96.603 Y88.596 E66.37941
G1 X96.603 Y89.485 E66.46087
G1 X121.951 Y114.833 E69.74266
G1 X121.556 Y115.328 E69.80063
G1 X96.603 Y90.375 E73.03131
G1 X96.603 Y91.265 E73.11277
G1 X121.161 Y115.823 E76.29234
G1 X120.757 Y116.308 E76.35018
G1 X96.603 Y92.155 E79.47735
G1 X96.603 Y93.044 E79.55881
G1 X120.345 Y116.786 E82.63264
G1 X119.923 Y117.254 E82.69032
G1 X96.603 Y93.934 E85.70956
G1 X96.383 Y94.603 F7800.000
G1 X119.495 Y117.716 E88.70195 F1800.000
G1 X119.050 Y118.160 E88.75955
G1 X95.493 Y94.603 E91.80953
G1 X94.603 Y94.603 E91.89099
G1 X118.605 Y118.605 E94.99857
G1 X118.160 Y119.050 E95.05617
G1 X93.714 Y94.603 E98.22135
G1 X92.824 Y94.603 E98.30281
G1 X117.716 Y119.495 E101.52559
G1 X117.253 Y119.923 E101.58323
G1 X91.934 Y94.603 E104.86136
G1 X91.044 Y94.603 E104.94282
G1 X116.786 Y120.345 E108.27570
G1 X116.309 Y120.758 E108.33345
G1 X90.155 Y94.603 E111.71969
G1 X89.265 Y94.603 E111.80115
G1 X115.824 Y121.163 E115.23989
G1 X115.336 Y121.564 E115.29777
G1 X88.375 Y94.603 E118.78842
G1 X87.485 Y94.603 E118.86988
G1 X114.832 Y121.950 E122.41056
G1 X114.326 Y122.334 E122.46871
G1 X86.596 Y94.603 E126.05904
G1 X85.706 Y94.603 E126.14050
G1 X113.820 Y122.717 E129.78049
G1 X113.298 Y123.086 E129.83894
G1 X84.816 Y94.603 E133.52658
G1 X83.926 Y94.603 E133.60804
G1 X112.769 Y123.446 E137.34239
G1 X112.240 Y123.807 E137.40101
G1 X56.197 Y67.764 E144.65707
G1 X56.546 Y67.223 E144.71599
