; generated by Slic3r 1.2.9 on 2016-05-18 at 15:11:27

; external perimeters extrusion width = 0.40mm
; perimeters extrusion width = 0.48mm
; infill extrusion width = 0.48mm
; solid infill extrusion width = 0.48mm
; top infill extrusion width = 0.48mm

M107
M190 S60 ; set bed temperature
M104 S220 ; set temperature
G28 ; home all axes
G1 Z5 F5000 ; lift nozzle

M109 S220 ; wait for temperature to be reached
G21 ; set units to millimeters
G90 ; use absolute coordinates
M82 ; use absolute distances for extrusion
G92 E0
G1 Z0.350 F7800.000
G1 E-2.00000 F2400.00000
G92 E0
G1 X55.767 Y55.789 F7800.000
G1 E2.00000 F2400.00000
G1 X56.981 Y54.612 E2.15373 F1800.000
G1 X57.910 Y53.768 E2.26783
G1 X58.733 Y53.055 E2.36690
G1 X59.752 Y52.216 E2.48682
G1 X60.690 Y51.484 E2.59508
G1 X61.798 Y50.665 E2.72037
G1 X62.589 Y50.110 E2.80825
G1 X63.656 Y49.398 E2.92481
G1 X64.553 Y48.830 E3.02141
G1 X65.846 Y48.057 E3.15836
G1 X66.576 Y47.646 E3.23458
G1 X67.962 Y46.908 E3.37735
G1 X70.133 Y45.865 E3.59633
G1 X72.204 Y44.991 E3.80076
G1 X74.742 Y44.069 E4.04629
G1 X77.051 Y43.366 E4.26573
G1 X79.391 Y42.778 E4.48516
G1 X81.758 Y42.308 E4.70459
G1 X84.146 Y41.957 E4.92403
G1 X86.548 Y41.725 E5.14346
G1 X88.956 Y41.612 E5.36266
G1 X91.330 Y41.619 E5.57849
G1 X93.346 Y41.717 E5.76207 F1800.000
G1 X95.675 Y41.935 E5.97475
G1 X97.990 Y42.265 E6.18744
G1 X100.287 Y42.707 E6.40012
G1 X102.869 Y43.343 E6.64191
G1 X105.108 Y44.020 E6.85459
G1 X107.312 Y44.803 E7.06728
G1 X109.369 Y45.644 E7.26934
G1 X111.494 Y46.634 E7.48249
G1 X113.568 Y47.726 E7.69564
G1 X115.447 Y48.830 E7.89378
G1 X116.344 Y49.398 E7.99038
G1 X117.411 Y50.110 E8.10694
G1 X118.331 Y50.759 E8.20937
G1 X119.310 Y51.484 E8.32011
G1 X120.123 Y52.116 E8.41381
G1 X121.140 Y52.948 E8.53328
G1 X121.970 Y53.662 E8.63281
G1 X123.019 Y54.612 E8.76146
G1 X123.853 Y55.409 E8.86635
G1 X124.693 Y56.252 E8.97462
G1 X125.532 Y57.135 E9.08535
G1 X126.287 Y57.972 E9.18779
G1 X127.122 Y58.944 E9.30434
G1 X127.795 Y59.766 E9.40096
G1 X129.118 Y61.498 E9.59910
G1 X129.934 Y62.654 E9.72777
G1 X130.452 Y63.425 E9.81227
G1 X131.245 Y64.674 E9.94676
G1 X131.691 Y65.415 E10.02543
G1 X132.530 Y66.897 E10.18031
G1 X133.557 Y68.897 E10.38473
G1 X133.943 Y69.713 E10.46677
G1 X134.662 Y71.353 E10.62959
G1 X135.536 Y73.602 E10.84903
G1 X136.200 Y75.576 E11.03844
G1 X136.861 Y77.897 E11.25787
G1 X137.406 Y80.248 E11.47731
G1 X137.833 Y82.623 E11.69674
G1 X138.174 Y85.345 E11.94620
G1 X138.347 Y87.752 E12.16563
G1 X138.399 Y90.160 E12.38460
G1 X138.334 Y92.498 E12.59728
G1 X138.188 Y94.512 E12.78087
G1 X137.914 Y96.835 E12.99355
G1 X137.528 Y99.142 E13.20623
G1 X137.030 Y101.427 E13.41892
G1 X136.709 Y102.639 E13.53289
G1 X136.332 Y103.993 E13.66071
G1 X135.602 Y106.215 E13.87339
G1 X134.765 Y108.399 E14.08607
G1 X133.874 Y110.438 E14.28837
G1 X132.833 Y112.538 E14.50152
G1 X131.774 Y114.442 E14.69966
G1 X131.245 Y115.326 E14.79334
G1 X130.542 Y116.437 E14.91282
G1 X129.934 Y117.346 E15.01233
G1 X129.214 Y118.368 E15.12599
G1 X128.621 Y119.172 E15.21677
G1 X127.795 Y120.234 E15.33915
G1 X127.122 Y121.056 E15.43577
G1 X126.177 Y122.152 E15.56734
G1 X125.423 Y122.982 E15.66932
G1 X124.578 Y123.866 E15.78050
G1 X123.019 Y125.388 E15.97865
G1 X122.090 Y126.232 E16.09274
G1 X121.267 Y126.945 E16.19180
G1 X120.248 Y127.784 E16.31174
G1 X119.441 Y128.416 E16.40497
G1 X118.202 Y129.335 E16.54528
G1 X117.410 Y129.890 E16.63316
G1 X116.210 Y130.689 E16.76428
G1 X114.292 Y131.862 E16.96870
G1 X113.424 Y132.354 E17.05947
G1 X112.180 Y133.018 E17.18769
G1 X111.345 Y133.438 E17.27264
G1 X109.369 Y134.356 E17.47079
G1 X107.796 Y135.009 E17.62567
G1 X105.571 Y135.826 E17.84118
G1 X103.267 Y136.545 E18.06061
G1 X100.609 Y137.222 E18.31007
G1 X98.567 Y137.634 E18.49947
G1 X96.182 Y138.002 E18.71891
G1 X93.782 Y138.251 E18.93834
G1 X91.372 Y138.379 E19.15778
G1 X88.670 Y138.381 E19.40340
G1 X86.335 Y138.260 E19.61608
G1 X84.007 Y138.026 E19.82877
G1 X81.694 Y137.681 E20.04145
G1 X79.400 Y137.224 E20.25413
G1 X77.440 Y136.741 E20.43771
G1 X75.196 Y136.079 E20.65040
G1 X72.987 Y135.310 E20.86308
G1 X70.818 Y134.435 E21.07577
G1 X69.987 Y134.068 E21.15834
G1 X68.655 Y133.438 E21.29240
G1 X67.820 Y133.018 E21.37734
G1 X65.846 Y131.943 E21.58176
G1 X64.412 Y131.084 E21.73373
G1 X63.656 Y130.602 E21.81531
G1 X62.453 Y129.796 E21.94690
G1 X60.690 Y128.516 E22.14503
G1 X59.877 Y127.883 E22.23874
G1 X58.860 Y127.052 E22.35819
G1 X57.910 Y126.232 E22.47228
G1 X57.102 Y125.501 E22.57137
G1 X56.262 Y124.703 E22.67672
G1 X55.422 Y123.866 E22.78453
G1 X54.577 Y122.982 E22.89572
G1 X53.713 Y122.029 E23.01271
G1 X52.878 Y121.056 E23.12927
G1 X52.205 Y120.234 E23.22588
G1 X50.882 Y118.502 E23.42402
G1 X50.066 Y117.346 E23.55269
G1 X49.548 Y116.575 E23.63719
G1 X48.755 Y115.326 E23.77168
G1 X48.309 Y114.585 E23.85035
G1 X47.470 Y113.103 E24.00523
G1 X47.091 Y112.391 E24.07853
G1 X46.373 Y110.959 E24.22422
G1 X45.447 Y108.910 E24.42865
G1 X44.577 Y106.708 E24.64393
G1 X43.800 Y104.424 E24.86336
G1 X43.057 Y101.783 E25.11282
G1 X42.594 Y99.752 E25.30222
G1 X42.167 Y97.377 E25.52166
G1 X41.859 Y94.983 E25.74109
G1 X41.670 Y92.577 E25.96053
G1 X41.601 Y89.840 E26.20952
G1 X41.666 Y87.502 E26.42221
G1 X41.843 Y85.170 E26.63489
G1 X42.086 Y83.165 E26.81847
G1 X42.472 Y80.858 E27.03115
G1 X42.970 Y78.573 E27.24384
G1 X43.577 Y76.314 E27.45652
G1 X44.292 Y74.087 E27.66921
G1 X45.114 Y71.897 E27.88189
G1 X46.041 Y69.750 E28.09457
G1 X46.373 Y69.041 E28.16574
G1 X47.167 Y67.462 E28.32645
G1 X48.309 Y65.415 E28.53960
G1 X48.755 Y64.674 E28.61827
G1 X49.548 Y63.425 E28.75277
G1 X50.786 Y61.632 E28.95090
G1 X51.476 Y60.701 E29.05625
G1 X52.205 Y59.766 E29.16407
G1 X52.981 Y58.821 E29.27524
G1 X53.713 Y57.972 E29.37724
G1 X54.468 Y57.135 E29.47968
G1 X55.725 Y55.831 E29.64437
G1 E27.64437 F2400.00000
G92 E0
G1 X97.448 Y95.448 F7800.000
G1 E2.00000 F2400.00000
G1 X82.552 Y95.448 E3.35451 F1800.000
G1 X82.552 Y84.552 E4.34531
G1 X97.448 Y84.552 E5.69982
G1 X97.448 Y95.388 E6.68516
G1 X96.823 Y94.823 F7800.000
G1 X83.177 Y94.823 E7.92603 F1800.000
G1 X83.177 Y85.177 E8.80318
G1 X96.823 Y85.177 E10.04405
G1 X96.823 Y94.763 E10.91575
G1 X96.823 Y95.223 F7800.000
G1 X123.156 Y113.755 F7800.000
G1 X122.520 Y114.640 E11.01480 F1800.000
G1 X121.810 Y115.550 E11.11979
G1 X120.539 Y117.057 E11.29901
G1 X119.909 Y117.751 E11.38426
G1 X119.197 Y118.500 E11.47825
G1 X118.488 Y119.208 E11.56933
G1 X117.786 Y119.877 E11.65749
G1 X116.311 Y121.184 E11.83672
G1 X114.774 Y122.418 E12.01595
G1 X113.821 Y123.125 E12.12383
G1 X112.136 Y124.273 E12.30927
G1 X110.400 Y125.334 E12.49425
G1 X108.614 Y126.307 E12.67924
G1 X106.781 Y127.190 E12.86422
G1 X104.906 Y127.980 E13.04920
G1 X102.994 Y128.676 E13.23419
G1 X101.050 Y129.275 E13.41917
G1 X99.079 Y129.777 E13.60416
G1 X97.085 Y130.181 E13.78914
G1 X95.073 Y130.484 E13.97413
G1 X93.049 Y130.686 E14.15911
G1 X91.017 Y130.788 E14.34411
G1 X89.014 Y130.789 E14.52625
G1 X87.045 Y130.693 E14.70553
G1 X85.082 Y130.503 E14.88482
G1 X83.131 Y130.218 E15.06411
G1 X81.196 Y129.839 E15.24341
G1 X79.281 Y129.367 E15.42270
G1 X77.392 Y128.804 E15.60199
G1 X75.532 Y128.149 E15.78129
G1 X73.706 Y127.406 E15.96058
G1 X71.918 Y126.575 E16.13987
G1 X70.172 Y125.658 E16.31917
G1 X68.472 Y124.659 E16.49846
G1 X66.823 Y123.578 E16.67775
G1 X65.227 Y122.419 E16.85705
G1 X63.690 Y121.184 E17.03634
G1 X62.214 Y119.877 E17.21563
G1 X60.803 Y118.500 E17.39493
G1 X59.460 Y117.056 E17.57422
G1 X58.189 Y115.549 E17.75351
G1 X56.992 Y113.982 E17.93281
G1 X55.872 Y112.359 E18.11210
G1 X54.831 Y110.684 E18.29139
G1 X53.873 Y108.961 E18.47069
G1 X52.998 Y107.191 E18.65025
G1 X52.405 Y105.851 E18.78344
G1 X51.660 Y103.955 E18.96873
G1 X51.012 Y102.026 E19.15371
G1 X50.461 Y100.068 E19.33870
G1 X50.009 Y98.084 E19.52368
G1 X49.655 Y96.081 E19.70866
G1 X49.402 Y94.062 E19.89365
G1 X49.250 Y92.034 E20.07863
G1 X49.200 Y90.000 E20.26365
G1 X49.247 Y88.029 E20.44291
G1 X49.390 Y86.062 E20.62220
G1 X49.628 Y84.105 E20.80150
G1 X49.960 Y82.161 E20.98079
G1 X50.385 Y80.236 E21.16008
G1 X50.903 Y78.333 E21.33938
G1 X51.512 Y76.458 E21.51867
G1 X52.212 Y74.614 E21.69796
G1 X53.002 Y72.799 E21.87802
G1 X53.236 Y72.305 E21.92769
G1 X54.168 Y70.487 E22.11347
G1 X55.185 Y68.725 E22.29846
G1 X56.289 Y67.016 E22.48344
G1 X57.480 Y65.360 E22.66890
G1 X58.190 Y64.450 E22.77388
G1 X59.461 Y62.943 E22.95311
G1 X60.803 Y61.500 E23.13234
G1 X61.512 Y60.792 E23.22341
G1 X62.214 Y60.123 E23.31158
G1 X63.003 Y59.408 E23.40848
G1 X63.689 Y58.816 E23.49082
G1 X65.226 Y57.582 E23.67004
G1 X66.179 Y56.875 E23.77792
G1 X67.864 Y55.727 E23.96337
G1 X69.600 Y54.666 E24.14835
G1 X71.386 Y53.693 E24.33333
G1 X73.219 Y52.810 E24.51832
G1 X75.094 Y52.020 E24.70330
G1 X77.006 Y51.324 E24.88829
G1 X78.950 Y50.725 E25.07327
G1 X80.921 Y50.223 E25.25825
G1 X82.915 Y49.819 E25.44324
G1 X84.927 Y49.516 E25.62822
G1 X86.951 Y49.314 E25.81321
G1 X88.983 Y49.212 E25.99821
G1 X90.986 Y49.211 E26.18035
G1 X92.047 Y49.263 E26.27689
G1 X92.955 Y49.307 E26.35962 F1800.000
G1 X94.918 Y49.497 E26.53891
G1 X96.869 Y49.782 E26.71821
G1 X98.804 Y50.161 E26.89750
G1 X100.719 Y50.633 E27.07680
G1 X102.608 Y51.196 E27.25609
G1 X104.468 Y51.851 E27.43538
G1 X106.294 Y52.594 E27.61468
G1 X108.082 Y53.425 E27.79397
G1 X109.828 Y54.342 E27.97326
G1 X111.528 Y55.341 E28.15255
G1 X113.177 Y56.422 E28.33185
G1 X114.772 Y57.581 E28.51114
G1 X116.310 Y58.816 E28.69044
G1 X117.786 Y60.123 E28.86973
G1 X119.197 Y61.500 E29.04902
G1 X120.540 Y62.944 E29.22832
G1 X121.811 Y64.451 E29.40761
G1 X123.008 Y66.018 E29.58690
G1 X124.128 Y67.641 E29.76620
G1 X125.169 Y69.316 E29.94549
G1 X126.127 Y71.039 E30.12478
G1 X127.002 Y72.809 E30.30435
G1 X127.595 Y74.149 E30.43753
G1 X128.340 Y76.045 E30.62282
G1 X128.988 Y77.974 E30.80781
G1 X129.539 Y79.932 E30.99279
G1 X129.991 Y81.916 E31.17778
G1 X130.345 Y83.919 E31.36276
G1 X130.598 Y85.938 E31.54774
G1 X130.750 Y87.966 E31.73273
G1 X130.800 Y90.000 E31.91775
G1 X130.753 Y91.971 E32.09701
G1 X130.610 Y93.938 E32.27630
G1 X130.372 Y95.895 E32.45559
G1 X130.040 Y97.839 E32.63489
G1 X129.615 Y99.764 E32.81418
G1 X129.097 Y101.667 E32.99347
G1 X128.488 Y103.542 E33.17277
G1 X127.788 Y105.386 E33.35206
G1 X126.998 Y107.201 E33.53212
G1 X126.764 Y107.695 E33.58179
G1 X125.832 Y109.513 E33.76757
G1 X124.815 Y111.275 E33.95255
G1 X123.711 Y112.984 E34.13754
G1 X123.191 Y113.706 E34.21848
G1 X123.664 Y114.120 F7800.000
G1 X123.021 Y115.014 E34.31865 F1800.000
G1 X122.298 Y115.941 E34.42546
G1 X121.007 Y117.470 E34.60747
G1 X120.367 Y118.176 E34.69412
G1 X119.644 Y118.936 E34.78950
G1 X118.925 Y119.655 E34.88197
G1 X118.212 Y120.335 E34.97153
G1 X116.713 Y121.662 E35.15355
G1 X115.153 Y122.915 E35.33556
G1 X114.183 Y123.634 E35.44528
G1 X112.475 Y124.798 E35.63326
G1 X110.713 Y125.876 E35.82108
G1 X108.899 Y126.863 E36.00889
G1 X107.038 Y127.760 E36.19671
G1 X105.134 Y128.562 E36.38453
G1 X103.193 Y129.268 E36.57235
G1 X101.220 Y129.877 E36.76017
G1 X99.218 Y130.387 E36.94798
G1 X97.193 Y130.796 E37.13580
G1 X95.151 Y131.104 E37.32362
G1 X93.096 Y131.310 E37.51144
G1 X91.033 Y131.413 E37.69926
G1 X88.999 Y131.413 E37.88419
G1 X86.999 Y131.317 E38.06623
G1 X85.007 Y131.123 E38.24827
G1 X83.026 Y130.834 E38.43031
G1 X81.061 Y130.450 E38.61235
G1 X79.117 Y129.970 E38.79439
G1 X77.199 Y129.398 E38.97643
G1 X75.310 Y128.734 E39.15847
G1 X73.456 Y127.979 E39.34051
G1 X71.641 Y127.135 E39.52255
G1 X69.868 Y126.205 E39.70459
G1 X68.142 Y125.190 E39.88663
G1 X66.468 Y124.093 E40.06867
G1 X64.848 Y122.916 E40.25071
G1 X63.287 Y121.662 E40.43275
G1 X61.789 Y120.335 E40.61479
G1 X60.356 Y118.936 E40.79683
G1 X58.993 Y117.470 E40.97887
G1 X57.702 Y115.940 E41.16091
G1 X56.486 Y114.349 E41.34295
G1 X55.349 Y112.702 E41.52499
G1 X54.292 Y111.001 E41.70703
G1 X53.320 Y109.251 E41.88907
G1 X52.432 Y107.456 E42.07121
G1 X51.828 Y106.092 E42.20681
G1 X51.073 Y104.168 E42.39474
G1 X50.415 Y102.210 E42.58256
G1 X49.855 Y100.222 E42.77038
G1 X49.396 Y98.208 E42.95820
G1 X49.037 Y96.174 E43.14601
G1 X48.780 Y94.125 E43.33383
G1 X48.626 Y92.065 E43.52165
G1 X48.574 Y90.000 E43.70948
G1 X48.623 Y87.999 E43.89151
G1 X48.768 Y86.002 E44.07355
G1 X49.009 Y84.014 E44.25559
G1 X49.346 Y82.041 E44.43763
G1 X49.778 Y80.086 E44.61967
G1 X50.304 Y78.155 E44.80171
G1 X50.923 Y76.251 E44.98375
G1 X51.633 Y74.379 E45.16579
G1 X52.433 Y72.540 E45.34810
G1 X52.675 Y72.029 E45.39956
G1 X53.619 Y70.188 E45.58766
G1 X54.652 Y68.399 E45.77548
G1 X55.773 Y66.664 E45.96330
G1 X56.979 Y64.986 E46.15129
G1 X57.702 Y64.059 E46.25809
G1 X58.993 Y62.529 E46.44011
G1 X60.356 Y61.064 E46.62213
G1 X61.075 Y60.345 E46.71460
G1 X61.788 Y59.665 E46.80415
G1 X62.590 Y58.940 E46.90245
G1 X63.287 Y58.338 E46.98618
G1 X64.847 Y57.085 E47.16820
G1 X65.817 Y56.366 E47.27791
G1 X67.525 Y55.201 E47.46589
G1 X69.287 Y54.124 E47.65371
G1 X71.101 Y53.137 E47.84153
G1 X72.962 Y52.240 E48.02935
G1 X74.866 Y51.438 E48.21717
G1 X76.807 Y50.732 E48.40498
G1 X78.780 Y50.123 E48.59280
G1 X80.782 Y49.613 E48.78062
G1 X82.807 Y49.204 E48.96844
G1 X84.849 Y48.896 E49.15626
G1 X86.904 Y48.690 E49.34407
G1 X88.967 Y48.587 E49.53190
G1 X91.001 Y48.587 E49.71683
G1 X92.077 Y48.639 E49.81476
G1 X93.001 Y48.683 E49.89886 F1800.000
G1 X94.993 Y48.877 E50.08090
G1 X96.974 Y49.166 E50.26294
G1 X98.939 Y49.550 E50.44498
G1 X100.883 Y50.030 E50.62702
G1 X102.801 Y50.602 E50.80906
G1 X104.690 Y51.266 E50.99110
G1 X106.544 Y52.021 E51.17314
G1 X108.359 Y52.865 E51.35518
G1 X110.132 Y53.795 E51.53722
G1 X111.858 Y54.810 E51.71926
G1 X113.532 Y55.907 E51.90130
G1 X115.152 Y57.084 E52.08334
G1 X116.713 Y58.338 E52.26538
G1 X118.211 Y59.665 E52.44742
G1 X119.644 Y61.064 E52.62947
G1 X121.007 Y62.530 E52.81151
G1 X122.298 Y64.060 E52.99355
G1 X123.514 Y65.651 E53.17559
G1 X124.651 Y67.298 E53.35763
G1 X125.708 Y68.999 E53.53967
G1 X126.680 Y70.749 E53.72171
G1 X127.568 Y72.544 E53.90384
G1 X128.172 Y73.908 E54.03945
G1 X128.927 Y75.832 E54.22738
G1 X129.585 Y77.790 E54.41520
G1 X130.145 Y79.778 E54.60301
G1 X130.604 Y81.792 E54.79083
G1 X130.963 Y83.826 E54.97865
G1 X131.220 Y85.875 E55.16647
G1 X131.374 Y87.935 E55.35429
G1 X131.426 Y90.000 E55.54212
G1 X131.377 Y92.001 E55.72414
G1 X131.232 Y93.998 E55.90618
G1 X130.991 Y95.986 E56.08823
G1 X130.654 Y97.959 E56.27027
G1 X130.222 Y99.914 E56.45231
G1 X129.696 Y101.845 E56.63435
G1 X129.077 Y103.749 E56.81639
G1 X128.367 Y105.621 E56.99843
G1 X127.567 Y107.460 E57.18074
G1 X127.325 Y107.971 E57.23220
G1 X126.381 Y109.812 E57.42030
G1 X125.348 Y111.601 E57.60812
G1 X124.227 Y113.336 E57.79594
G1 X123.699 Y114.071 E57.87830
G1 X123.266 Y114.080 F7800.000
G1 X128.008 Y76.402 F7800.000
G1 X103.612 Y52.006 E61.03696 F1800.000
G1 X102.245 Y51.529 F7800.000
G1 X128.459 Y77.742 E64.43088 F1800.000
G1 X128.846 Y79.019 E64.55308
G1 X100.977 Y51.150 E68.16137
G1 X99.760 Y50.823 E68.27674
G1 X129.190 Y80.253 E72.08711
G1 X129.453 Y81.406 E72.19537
G1 X98.579 Y50.532 E76.19269
G1 X97.472 Y50.314 E76.29603
G1 X129.690 Y82.533 E80.46747
G1 X129.881 Y83.613 E80.56789
G1 X96.382 Y50.114 E84.90509
G1 X95.340 Y49.962 E85.00149
G1 X130.038 Y84.660 E89.49398
G1 X130.166 Y85.678 E89.58783
G1 X94.321 Y49.833 E94.22873
G1 X93.336 Y49.737 E94.31936
G1 X130.262 Y86.664 E99.10028
G1 X130.334 Y87.625 E99.18859
G1 X92.373 Y49.664 E104.10354
G1 X91.438 Y49.619 E104.18924
G1 X130.383 Y88.564 E109.23151
G1 X130.405 Y89.476 E109.31508
G1 X90.519 Y49.590 E114.47921
G1 X89.630 Y49.591 E114.56064
G1 X130.416 Y90.376 E119.84129
G1 X130.395 Y91.245 E119.92085
G1 X88.746 Y49.597 E125.31319
G1 X87.899 Y49.639 E125.39087
G1 X130.372 Y92.112 E130.89001
G1 X130.312 Y92.942 E130.96615
G1 X87.051 Y49.681 E136.56722
G1 X86.234 Y49.753 E136.64237
G1 X130.252 Y93.771 E142.34151
G1 X130.166 Y94.576 E142.41556
G1 X85.425 Y49.834 E148.20835
G1 X84.627 Y49.926 E148.28190
G1 X130.070 Y95.369 E154.16556
G1 X129.965 Y96.154 E154.23804
G1 X83.853 Y50.042 E160.20820
G1 X83.080 Y50.159 E160.27978
G1 X129.835 Y96.914 E166.33325
G1 X129.705 Y97.674 E166.40383
G1 X82.331 Y50.300 E172.53748
G1 X81.591 Y50.449 E172.60661
G1 X129.552 Y98.411 E178.81629
G1 X129.391 Y99.139 E178.88462
